%
(Header)
(Generated by gcodetools from Inkscape.)
(Using default header. To add your own header create file "header" in the output dir.)
M3
(Header end.)
G21 (All units in mm)

(Start cutting path id: path169)
(Change tool to Default tool)

G00 Z5.000000
G00 X33.090556 Y197.491653

G01 Z-0.125000 F100.0(Penetrate)
G01 X33.303860 Y197.491653 Z-0.125000 F400.000000
G01 X33.303860 Y197.210080 Z-0.125000
G01 X33.090556 Y197.022364 Z-0.125000
G01 X33.410512 Y196.928506 Z-0.125000
G02 X33.368673 Y196.749027 Z-0.125000 I-1.898421 J0.347936
G02 X33.303860 Y196.553074 Z-0.125000 I-2.328601 J0.661505
G01 X32.983904 Y196.459217 Z-0.125000
G03 X32.861400 Y196.279099 Z-0.125000 I1.806779 J-1.360571
G03 X32.750603 Y196.077919 Z-0.125000 I2.144772 J-1.312303
G01 X32.639368 Y195.869305 Z-0.125000
G01 X32.557296 Y195.708353 Z-0.125000
G01 X32.343992 Y195.802211 Z-0.125000
G01 X32.450644 Y196.083785 Z-0.125000
G01 X32.024036 Y196.459217 Z-0.125000
G02 X32.168407 Y196.595059 Z-0.125000 I2.111337 J-2.099248
G02 X32.343992 Y196.740790 Z-0.125000 I2.606263 J-2.961531
G01 X32.663948 Y196.740790 Z-0.125000
G01 X32.757269 Y196.957837 Z-0.125000
G02 X32.890880 Y197.201796 Z-0.125000 I2.201880 J-1.047360
G02 X33.090556 Y197.491653 Z-0.125000 I3.311855 J-2.067750
G01 X33.090556 Y197.491653 Z-0.125000
G00 Z5.000000

(End cutting path id: path169)


(Start cutting path id: path21)
(Change tool to Default tool)

G00 Z5.000000
G00 X34.796988 Y195.426780

G01 Z-0.125000 F100.0(Penetrate)
G01 X34.592849 Y195.281227 Z-0.125000 F400.000000
G03 X32.155520 Y192.681517 Z-0.125000 I5.391729 J-7.497357
G03 X31.030839 Y189.601724 Z-0.125000 I6.702395 J-4.192838
G03 X30.921070 Y187.820344 Z-0.125000 I14.951411 J-1.815382
G03 X31.064168 Y186.040990 Z-0.125000 I10.830236 J-0.024450
G01 X31.277472 Y186.040990 Z-0.125000
G01 X31.258725 Y185.875272 Z-0.125000
G03 X31.395691 Y184.901513 Z-0.125000 I2.443592 J-0.152804
G03 X31.810732 Y183.976116 Z-0.125000 I6.002551 J2.136378
G01 X31.962378 Y183.687210 Z-0.125000
G03 X32.525228 Y182.776806 Z-0.125000 I8.245267 J4.468387
G03 X33.197208 Y181.911242 Z-0.125000 I9.102068 J6.372750
G01 X33.393014 Y181.677330 Z-0.125000
G03 X34.452232 Y180.623455 Z-0.125000 I7.687314 J6.667050
G03 X35.756856 Y179.752510 Z-0.125000 I4.241229 J4.940515
G02 X35.973912 Y179.620944 Z-0.125000 I-28.697349 J-47.589312
G02 X36.190130 Y179.488535 Z-0.125000 I-29.011420 J-47.616979
G03 X39.019437 Y178.381590 Z-0.125000 I4.912672 J8.387318
G03 X42.122647 Y178.039604 Z-0.125000 I3.154899 J14.377436
G01 X42.534049 Y178.033738 Z-0.125000
G03 X46.437795 Y178.695121 Z-0.125000 I0.041539 J11.606228
G03 X49.684524 Y180.552319 Z-0.125000 I-3.469409 J9.831722
G03 X50.243984 Y181.041139 Z-0.125000 I-28.168920 J32.804131
G03 X50.794788 Y181.535810 Z-0.125000 I-48.678124 J54.755915
G01 X50.688136 Y181.723526 Z-0.125000
G01 X50.305689 Y181.586405 Z-0.125000
G02 X50.050324 Y181.496551 Z-0.125000 I-339.863864 J965.403721
G02 X49.794925 Y181.406756 Z-0.125000 I-389.256083 J1106.825410
G01 X49.544543 Y181.316564 Z-0.125000
G02 X47.822145 Y180.932985 Z-0.125000 I-2.496415 J7.150871
G02 X46.035443 Y180.843608 Z-0.125000 I-1.745559 J16.991642
G01 X45.805695 Y180.843668 Z-0.125000
G02 X44.169843 Y180.922948 Z-0.125000 I0.046805 J17.882583
G02 X42.582584 Y181.254237 Z-0.125000 I0.685410 J7.251957
G01 X42.257629 Y181.350661 Z-0.125000
G02 X39.300877 Y182.907760 Z-0.125000 I3.095914 J9.464599
G02 X37.143332 Y185.102411 Z-0.125000 I6.673308 J8.718338
G01 X36.954191 Y185.348055 Z-0.125000
G02 X35.621784 Y188.443139 Z-0.125000 I6.044837 J4.436589
G02 X35.663770 Y191.699067 Z-0.125000 I8.361123 J1.520416
G02 X36.915900 Y194.605664 Z-0.125000 I8.813534 J-2.073774
G02 X39.231795 Y197.104123 Z-0.125000 I8.657491 J-5.702316
G03 X39.527052 Y197.340466 Z-0.125000 I-7.322067 J9.449878
G03 X39.809632 Y197.585511 Z-0.125000 I-5.063319 J6.124338
G03 X37.039988 Y196.882656 Z-0.125000 I-0.000000 J-5.808401
G03 X34.796988 Y195.426780 Z-0.125000 I8.111807 J-14.953261
G01 X34.796988 Y195.426780 Z-0.125000
G00 Z5.000000

(End cutting path id: path21)


(Start cutting path id: path21)
(Change tool to Default tool)

G00 Z5.000000
G00 X39.276372 Y196.928506

G01 Z-0.125000 F100.0(Penetrate)
G01 X39.070150 Y196.792119 Z-0.125000 F400.000000
G03 X36.812947 Y194.360011 Z-0.125000 I4.436057 J-6.380530
G03 X35.781071 Y191.504913 Z-0.125000 I7.063688 J-4.166941
G03 X36.015618 Y187.903633 Z-0.125000 I9.956599 J-1.159816
G03 X37.783244 Y184.539263 Z-0.125000 I7.826381 J1.965410
G03 X38.351613 Y183.964765 Z-0.125000 I8.923393 J8.259786
G03 X38.956416 Y183.412968 Z-0.125000 I15.693749 J16.593972
G01 X39.195550 Y183.202521 Z-0.125000
G03 X42.486411 Y181.459173 Z-0.125000 I5.844311 J7.054414
G03 X46.343161 Y180.921907 Z-0.125000 I3.780146 J13.024272
G03 X48.986519 Y181.233381 Z-0.125000 I-0.362404 J14.447936
G03 X51.345546 Y182.261009 Z-0.125000 I-1.338104 J6.293263
G03 X51.708474 Y182.722613 Z-0.125000 I-2.842133 J2.608056
G03 X52.014620 Y183.207654 Z-0.125000 I-8.801496 J5.894425
G01 X52.141712 Y183.421515 Z-0.125000
G03 X53.251938 Y186.691015 Z-0.125000 I-7.619903 J4.410745
G03 X53.034480 Y190.076879 Z-0.125000 I-8.719740 J1.139887
G01 X52.939076 Y190.442412 Z-0.125000
G03 X52.177186 Y192.314340 Z-0.125000 I-9.046044 J-2.590805
G03 X50.901440 Y194.018911 Z-0.125000 I-6.340321 J-3.415577
G01 X50.716049 Y194.211760 Z-0.125000
G03 X50.437183 Y194.491794 Z-0.125000 I-21.230674 J-20.863214
G03 X50.154876 Y194.769774 Z-0.125000 I-43.921225 J-44.322538
G01 X49.977400 Y194.948324 Z-0.125000
G03 X46.902719 Y196.923171 Z-0.125000 I-6.735766 J-7.106113
G03 X43.115844 Y197.773227 Z-0.125000 I-4.487326 J-11.130371
G03 X42.529406 Y197.789521 Z-0.125000 I-1.131575 J-30.165216
G03 X41.942672 Y197.796692 Z-0.125000 I-0.907318 J-50.233658
G01 X41.652894 Y197.799350 Z-0.125000
G03 X40.362016 Y197.539057 Z-0.125000 I0.014652 J-3.403764
G03 X39.276372 Y196.928506 Z-0.125000 I2.017685 J-4.858205
G01 X39.276372 Y196.928506 Z-0.125000
G00 Z5.000000

(End cutting path id: path21)


(Start cutting path id: path21)
(Change tool to Default tool)

G00 Z5.000000
G00 X42.475932 Y198.711806

G01 Z-0.125000 F100.0(Penetrate)
G01 X42.475932 Y198.524090 Z-0.125000 F400.000000
G01 X41.409412 Y198.148659 Z-0.125000
G01 X41.819772 Y198.117495 Z-0.125000
G02 X46.894202 Y196.962810 Z-0.125000 I-1.429842 J-18.011152
G02 X51.008092 Y194.300485 Z-0.125000 I-4.309739 J-11.169117
G02 X52.959614 Y191.266010 Z-0.125000 I-7.173213 J-6.757981
G02 X53.594403 Y187.935746 Z-0.125000 I-7.935574 J-3.238248
G02 X53.593230 Y187.788314 Z-0.125000 I-184.115222 J1.392982
G03 X53.591982 Y187.636413 Z-0.125000 I524.674315 J-4.397124
G02 X53.259232 Y185.334745 Z-0.125000 I-9.114397 J0.142773
G02 X52.287916 Y183.131395 Z-0.125000 I-8.098150 J2.254185
G01 X52.147102 Y182.896383 Z-0.125000
G02 X51.776849 Y182.344346 Z-0.125000 I-6.506395 J3.963670
G02 X51.598844 Y182.151386 Z-0.125000 I-0.957149 J0.704384
G03 X51.436503 Y181.991622 Z-0.125000 I0.821426 J-0.997034
G03 X51.290553 Y181.789154 Z-0.125000 I1.181277 J-1.005368
G02 X48.569619 Y179.388594 Z-0.125000 I-6.239595 J4.330010
G02 X44.928928 Y177.969210 Z-0.125000 I-8.247749 J15.776465
G02 X43.206570 Y177.773174 Z-0.125000 I-1.746294 J7.678514
G02 X41.463675 Y177.780073 Z-0.125000 I-0.378504 J124.519907
G01 X41.081540 Y177.784062 Z-0.125000
G01 X40.736301 Y177.789178 Z-0.125000
G03 X40.442930 Y177.766847 Z-0.125000 I-0.022751 J-1.639408
G03 X40.129588 Y177.687643 Z-0.125000 I0.326550 J-1.951278
G01 X39.489676 Y177.969217 Z-0.125000
G03 X38.909193 Y178.126453 Z-0.125000 I-5.133004 J-17.799868
G03 X38.316504 Y178.250790 Z-0.125000 I-1.793393 J-7.073916
G01 X38.103200 Y178.156933 Z-0.125000
G01 X37.836987 Y178.317884 Z-0.125000
G03 X37.450467 Y178.534292 Z-0.125000 I-5.439241 J-9.261490
G03 X37.052928 Y178.738045 Z-0.125000 I-6.505211 J-12.202478
G02 X35.588889 Y179.554621 Z-0.125000 I7.304914 J14.817708
G02 X34.263728 Y180.503374 Z-0.125000 I7.001576 J11.179215
G01 X33.998764 Y180.713454 Z-0.125000
G02 X32.546002 Y182.310338 Z-0.125000 I4.944682 J5.957680
G02 X31.490776 Y184.069974 Z-0.125000 I14.594758 J9.948469
G01 X31.354128 Y184.327716 Z-0.125000
G02 X30.983587 Y185.314148 Z-0.125000 I4.812364 J2.370518
G02 X30.744212 Y186.322563 Z-0.125000 I17.950835 J4.793737
G01 X30.700885 Y186.527144 Z-0.125000
G02 X30.623442 Y188.028157 Z-0.125000 I6.069845 J1.065670
G02 X30.784206 Y189.519598 Z-0.125000 I20.403765 J-1.444967
G01 X30.824930 Y189.803944 Z-0.125000
G01 X30.866695 Y190.074313 Z-0.125000
G01 X30.903930 Y190.315580 Z-0.125000
G02 X31.016153 Y190.670118 Z-0.125000 I2.317818 J-0.538638
G02 X31.170820 Y191.015458 Z-0.125000 I4.831375 J-1.956511
G01 X30.957516 Y191.015458 Z-0.125000
G02 X30.976743 Y191.311726 Z-0.125000 I45.123558 J-2.779580
G02 X30.997511 Y191.607936 Z-0.125000 I77.598189 J-5.291735
G01 X31.020008 Y191.941205 Z-0.125000
G02 X31.101537 Y192.219873 Z-0.125000 I1.060967 J-0.159143
G02 X31.277472 Y192.517185 Z-0.125000 I1.386585 J-0.619807
G01 X31.277472 Y191.297032 Z-0.125000
G01 X31.504107 Y191.795652 Z-0.125000
G02 X33.924371 Y195.004302 Z-0.125000 I9.099688 J-4.346716
G02 X37.676592 Y197.303938 Z-0.125000 I8.413251 J-9.516567
G02 X39.248980 Y197.756024 Z-0.125000 I4.051074 J-11.129440
G02 X40.876152 Y198.054801 Z-0.125000 I5.920214 J-27.661875
G01 X40.876152 Y198.242517 Z-0.125000
G02 X41.215970 Y198.360085 Z-0.125000 I60.929770 J-175.561046
G02 X41.556058 Y198.477161 Z-0.125000 I102.889256 J-298.324003
G01 X41.938506 Y198.609149 Z-0.125000
G02 X42.265704 Y198.691907 Z-0.125000 I0.864215 J-2.728610
G02 X42.475932 Y198.711806 Z-0.125000 I0.210228 J-1.100578
G01 X42.475932 Y198.711806 Z-0.125000
G00 Z5.000000

(End cutting path id: path21)


(Start cutting path id: path14)
(Change tool to Default tool)

G00 Z5.000000
G00 X41.729368 Y202.747696

G01 Z-0.125000 F100.0(Penetrate)
G01 X41.729368 Y202.653838 Z-0.125000 F400.000000
G01 X41.912963 Y202.648201 Z-0.125000
G02 X44.346956 Y202.483346 Z-0.125000 I-1.108114 J-34.411406
G02 X46.742012 Y202.090691 Z-0.125000 I-2.101792 J-20.320991
G01 X46.952035 Y202.044220 Z-0.125000
G02 X50.271814 Y200.865527 Z-0.125000 I-3.235868 J-14.378209
G02 X53.141132 Y199.087238 Z-0.125000 I-8.011408 J-16.130629
G01 X53.392348 Y198.900622 Z-0.125000
G02 X54.056269 Y198.358241 Z-0.125000 I-7.273359 J-9.580763
G02 X54.662173 Y197.776893 Z-0.125000 I-6.285165 J-7.157078
G03 X54.852414 Y197.586313 Z-0.125000 I6.444646 J6.242916
G03 X55.049619 Y197.399995 Z-0.125000 I6.627508 J6.817284
G02 X55.870652 Y196.478290 Z-0.125000 I-4.394458 J-4.741005
G02 X56.550611 Y195.495134 Z-0.125000 I-17.859245 J-13.078313
G03 X56.711003 Y195.271099 Z-0.125000 I4.509856 J3.059292
G03 X56.879785 Y195.050615 Z-0.125000 I16.457641 J12.423556
G02 X57.632167 Y193.747581 Z-0.125000 I-5.384376 J-3.977714
G02 X58.180439 Y192.388130 Z-0.125000 I-24.285257 J-10.584629
G01 X58.256002 Y192.191180 Z-0.125000
G02 X58.733667 Y190.121187 Z-0.125000 I-8.678623 J-3.092761
G02 X58.840348 Y188.029604 Z-0.125000 I-17.274742 J-1.929609
G01 X58.839047 Y187.793853 Z-0.125000
G02 X58.406570 Y184.562138 Z-0.125000 I-13.045799 J0.101029
G02 X57.087256 Y181.441953 Z-0.125000 I-11.594747 J3.063613
G01 X57.193908 Y181.348095 Z-0.125000
G01 X57.513864 Y181.535810 Z-0.125000
G02 X57.249887 Y181.141072 Z-0.125000 I-1.629978 J0.804392
G02 X56.893949 Y180.790813 Z-0.125000 I-2.572591 J2.258325
G01 X56.665231 Y180.594665 Z-0.125000
G01 X56.447344 Y180.409516 Z-0.125000
G03 X56.287129 Y180.268890 Z-0.125000 I65.427026 J-74.702583
G03 X56.127388 Y180.127942 Z-0.125000 I45.966207 J-52.256057
G01 X55.914084 Y179.940226 Z-0.125000
G02 X56.018706 Y180.561659 Z-0.125000 I1.027595 J0.146522
G02 X56.347358 Y181.125182 Z-0.125000 I5.499184 J-2.829577
G03 X57.060666 Y182.436281 Z-0.125000 I-10.556323 J6.592794
G03 X57.620516 Y183.788400 Z-0.125000 I-14.501578 J6.796399
G01 X57.703994 Y184.004988 Z-0.125000
G03 X58.129272 Y185.924097 Z-0.125000 I-6.603532 J2.470032
G03 X58.207102 Y187.859486 Z-0.125000 I-25.395395 J1.990512
G03 X58.207842 Y187.986050 Z-0.125000 I-1257.197173 J6.876370
G03 X58.208584 Y188.115169 Z-0.125000 I-1308.475172 J8.159441
G03 X58.050996 Y190.213109 Z-0.125000 I-13.627735 J0.031231
G03 X57.493868 Y192.282540 Z-0.125000 I-9.583871 J-1.470442
G01 X57.397006 Y192.533294 Z-0.125000
G03 X56.870911 Y193.668476 Z-0.125000 I-10.656683 J-4.249297
G03 X56.234040 Y194.769774 Z-0.125000 I-15.706257 J-8.347988
G01 X56.047816 Y195.072979 Z-0.125000
G03 X52.120954 Y199.084495 Z-0.125000 I-11.471737 J-7.301898
G03 X46.578701 Y201.622134 Z-0.125000 I-10.694855 J-16.036757
G03 X44.872919 Y201.969439 Z-0.125000 I-4.646687 J-18.459536
G03 X43.122510 Y202.103156 Z-0.125000 I-1.721111 J-11.006356
G01 X42.888401 Y202.103428 Z-0.125000
G03 X42.645349 Y202.103350 Z-0.125000 I-0.066478 J-170.031518
G03 X42.402296 Y202.102927 Z-0.125000 I0.180209 J-173.575380
G02 X42.033753 Y202.102812 Z-0.125000 I-0.217503 J106.227870
G02 X41.665210 Y202.103523 Z-0.125000 I0.515615 J362.636337
G03 X41.427326 Y202.103386 Z-0.125000 I0.250365 J-637.690108
G03 X41.189442 Y202.103156 Z-0.125000 I0.451706 J-592.156727
G01 X40.970540 Y202.103731 Z-0.125000
G03 X39.996791 Y202.032860 Z-0.125000 I-0.076151 J-5.678665
G03 X39.090981 Y201.802884 Z-0.125000 I0.822427 J-5.138155
G01 X38.899549 Y201.688311 Z-0.125000
G01 X38.709783 Y201.568606 Z-0.125000
G02 X38.015370 Y201.217825 Z-0.125000 I-2.416218 J3.920473
G02 X37.676592 Y201.152112 Z-0.125000 I-0.338778 J0.840401
G02 X38.222318 Y201.568395 Z-0.125000 I1.909192 J-1.937001
G02 X38.849764 Y201.902975 Z-0.125000 I5.058825 J-8.731320
G03 X35.681563 Y201.004347 Z-0.125000 I7.709252 J-33.213931
G03 X32.878502 Y199.523530 Z-0.125000 I3.148043 J-9.352372
G02 X32.469488 Y199.283968 Z-0.125000 I-1.462691 J2.028361
G02 X32.024036 Y199.087238 Z-0.125000 I-5.386358 J11.593546
G03 X31.551967 Y198.665785 Z-0.125000 I2.660989 J-3.455677
G03 X31.119577 Y198.219052 Z-0.125000 I773.333632 J-748.938435
G02 X30.783485 Y197.894796 Z-0.125000 I-6.748080 J6.658098
G02 X30.424256 Y197.585511 Z-0.125000 I-5.008530 J5.454054
G01 X30.210952 Y197.585511 Z-0.125000
G03 X27.899115 Y194.714110 Z-0.125000 I7.999636 J-8.807068
G03 X26.511461 Y191.537543 Z-0.125000 I13.626979 J-7.844195
G01 X26.445975 Y191.331037 Z-0.125000
G03 X26.091322 Y189.349675 Z-0.125000 I8.610054 J-2.563578
G03 X26.038193 Y187.360866 Z-0.125000 I26.028726 J-1.690445
G02 X26.039728 Y187.112749 Z-0.125000 I-384.810882 J-2.505893
G02 X26.041104 Y186.864629 Z-0.125000 I-384.815328 J-2.257905
G03 X26.045518 Y186.265090 Z-0.125000 I190.671477 J1.104015
G03 X26.051524 Y185.665558 Z-0.125000 I276.862629 J2.473694
G01 X26.264828 Y185.665558 Z-0.125000
G02 X26.375725 Y185.372444 Z-0.125000 I-39.301592 J-15.036881
G02 X26.484798 Y185.078946 Z-0.125000 I-67.978158 J-25.429861
G01 X26.608531 Y184.748977 Z-0.125000
G02 X26.658157 Y184.445721 Z-0.125000 I-1.422403 J-0.388455
G02 X26.636860 Y184.259523 Z-0.125000 I-0.547542 J-0.031691
G03 X26.862400 Y182.897745 Z-0.125000 I1.588629 J-0.436455
G02 X27.651304 Y181.629668 Z-0.125000 I-15.506027 J-10.526152
G01 X27.817115 Y181.337829 Z-0.125000
G03 X28.759972 Y179.939974 Z-0.125000 I12.020251 J7.090786
G03 X29.890996 Y178.626216 Z-0.125000 I12.089718 J9.264390
G01 X29.791010 Y178.802199 Z-0.125000
G01 X29.571040 Y179.189363 Z-0.125000
G02 X29.805827 Y179.205435 Z-0.125000 I0.234787 J-1.706860
G02 X30.104300 Y179.189363 Z-0.125000 I0.000000 J-2.779447
G02 X30.356943 Y178.954095 Z-0.125000 I-2.930166 J-3.399853
G02 X30.617563 Y178.673144 Z-0.125000 I-3.921947 J-3.899491
G01 X30.872944 Y178.382772 Z-0.125000
G01 X31.064168 Y178.156926 Z-0.125000
G02 X30.744212 Y178.110965 Z-0.125000 I-0.319956 J1.090711
G02 X30.424256 Y178.156926 Z-0.125000 I-0.000000 J1.136672
G02 X30.247203 Y178.306876 Z-0.125000 I3.862674 J4.740345
G02 X30.104300 Y178.438500 Z-0.125000 I2.832582 J3.218701
G03 X30.674380 Y177.863288 Z-0.125000 I11.849599 J11.173769
G03 X31.277472 Y177.312205 Z-0.125000 I11.478193 J11.955923
G01 X31.597428 Y177.312205 Z-0.125000
G02 X32.127802 Y176.925087 Z-0.125000 I-3.839838 J-5.817686
G02 X32.557296 Y176.467484 Z-0.125000 I-1.415366 J-1.758780
G01 X32.557296 Y176.279768 Z-0.125000
G01 X32.741359 Y176.201011 Z-0.125000
G02 X33.100401 Y176.030582 Z-0.125000 I-3.883622 J-8.645015
G02 X33.451756 Y175.850441 Z-0.125000 I-9.203372 J-18.383442
G03 X36.047476 Y174.700924 Z-0.125000 I10.598109 J20.426096
G03 X38.849764 Y173.933321 Z-0.125000 I5.760786 J15.531924
G02 X39.116463 Y173.877800 Z-0.125000 I-43.241277 J-208.383786
G02 X39.383024 Y173.821864 Z-0.125000 I-29.059632 J-139.145612
G03 X43.265946 Y173.540429 Z-0.125000 I3.167019 J16.768103
G03 X47.061968 Y174.308752 Z-0.125000 I-0.517176 J12.316768
G01 X47.168620 Y174.496468 Z-0.125000
G02 X48.102286 Y174.799587 Z-0.125000 I2.641503 J-6.546844
G02 X49.088356 Y174.965757 Z-0.125000 I1.564481 J-6.274975
G03 X49.329220 Y175.004936 Z-0.125000 I-0.233358 J2.194640
G03 X49.514964 Y175.059615 Z-0.125000 I-0.298552 J1.356995
G01 X49.621616 Y175.341189 Z-0.125000
G02 X49.830867 Y175.445038 Z-0.125000 I1.796391 J-3.356899
G02 X50.094884 Y175.558235 Z-0.125000 I2.399981 J-5.233142
G03 X52.909940 Y177.138983 Z-0.125000 I-5.664621 J13.384724
G03 X55.060868 Y179.283221 Z-0.125000 I-5.530670 J7.698867
G01 X55.380824 Y179.189363 Z-0.125000
G02 X53.613767 Y177.355525 Z-0.125000 I-11.404292 J9.220722
G02 X51.434700 Y175.810479 Z-0.125000 I-8.770409 J10.060251
G01 X51.186817 Y175.659792 Z-0.125000
G02 X47.038189 Y173.939512 Z-0.125000 I-8.209199 J13.934751
G02 X42.437448 Y173.352781 Z-0.125000 I-4.598995 J17.730858
G03 X42.079446 Y173.351535 Z-0.125000 I0.052256 J-66.445199
G03 X41.721452 Y173.349093 Z-0.125000 I1.704212 J-276.007504
G02 X39.770715 Y173.443322 Z-0.125000 I-0.067201 J18.848024
G02 X37.863233 Y173.792534 Z-0.125000 I1.197965 J11.927760
G03 X36.970503 Y174.006782 Z-0.125000 I-6.888995 J-26.738072
G03 X36.060564 Y174.171998 Z-0.125000 I-2.555925 J-11.488502
G02 X35.871037 Y174.234165 Z-0.125000 I0.207096 J0.951363
G02 X35.543552 Y174.402610 Z-0.125000 I1.352011 J3.031095
G01 X35.543552 Y174.590326 Z-0.125000
G01 X35.170270 Y174.672451 Z-0.125000
G02 X33.367783 Y175.491756 Z-0.125000 I2.005507 J6.804562
G02 X31.786152 Y176.558409 Z-0.125000 I19.175974 J30.140057
G03 X31.387423 Y176.771427 Z-0.125000 I-1.487447 J-2.304536
G03 X30.957516 Y176.936773 Z-0.125000 I-2.230489 J-5.157787
G02 X30.295504 Y177.481200 Z-0.125000 I1.647973 J2.678610
G02 X29.890996 Y178.156926 Z-0.125000 I1.410956 J1.303575
G03 X29.668352 Y178.318430 Z-0.125000 I-15.619591 J-21.298410
G03 X29.441058 Y178.475896 Z-0.125000 I-4.887926 J-6.812680
G02 X28.579618 Y179.387140 Z-0.125000 I2.709308 J3.424034
G02 X27.971260 Y180.409516 Z-0.125000 I6.369505 J4.482318
G01 X27.971260 Y180.597231 Z-0.125000
G01 X27.757956 Y180.597231 Z-0.125000
G02 X27.214382 Y181.539772 Z-0.125000 I5.486233 J3.791989
G02 X26.876827 Y182.536717 Z-0.125000 I4.147300 J1.959850
G01 X26.798088 Y182.755963 Z-0.125000
G01 X26.478132 Y182.849821 Z-0.125000
G02 X26.362070 Y183.042606 Z-0.125000 I2.179096 J1.443205
G02 X26.244831 Y183.278048 Z-0.125000 I3.135574 J1.708285
G01 X26.133596 Y183.513059 Z-0.125000
G02 X26.075255 Y183.791700 Z-0.125000 I1.639606 J0.488724
G02 X26.056185 Y184.138717 Z-0.125000 I2.530526 J0.313096
G03 X26.011606 Y184.679360 Z-0.125000 I-2.911289 J0.032109
G03 X25.894879 Y185.216433 Z-0.125000 I-7.039883 J-1.248823
G02 X25.705279 Y186.590842 Z-0.125000 I7.335970 J1.712281
G02 X25.678242 Y187.970943 Z-0.125000 I27.278811 J1.224721
G01 X25.678669 Y188.233377 Z-0.125000
G02 X25.799530 Y190.198640 Z-0.125000 I17.261686 J-0.075230
G02 X26.264793 Y192.141753 Z-0.125000 I8.532130 J-1.015689
G01 X26.332231 Y192.339276 Z-0.125000
G02 X28.319717 Y196.049644 Z-0.125000 I12.623803 J-4.374546
G02 X31.597428 Y199.181096 Z-0.125000 I11.449136 J-8.702756
G01 X31.758291 Y199.293056 Z-0.125000
G02 X35.670209 Y201.350361 Z-0.125000 I10.519940 J-15.255559
G02 X40.147060 Y202.467314 Z-0.125000 I6.865629 J-17.987788
G03 X40.937553 Y202.643357 Z-0.125000 I-0.561307 J4.383266
G02 X41.729368 Y202.747696 Z-0.125000 I0.682814 J-2.125130
G01 X41.729368 Y202.747696 Z-0.125000
G00 Z5.000000

(End cutting path id: path14)


(Start cutting path id: path116)
(Change tool to Default tool)

G00 Z5.000000
G00 X46.315404 Y203.310843

G01 Z-0.125000 F100.0(Penetrate)
G01 X46.575577 Y203.303831 Z-0.125000 F400.000000
G02 X46.982134 Y203.290661 Z-0.125000 I-2.112906 J-71.506354
G02 X47.388590 Y203.275646 Z-0.125000 I-4.218582 J-119.708024
G01 X47.642435 Y203.266916 Z-0.125000
G02 X48.375998 Y203.189922 Z-0.125000 I-0.283922 J-6.238077
G02 X49.088356 Y203.029270 Z-0.125000 I-1.023833 J-6.199519
G01 X49.088356 Y202.841554 Z-0.125000
G01 X49.448307 Y202.806357 Z-0.125000
G02 X49.814944 Y202.704835 Z-0.125000 I-0.239257 J-1.576849
G02 X50.048224 Y202.559980 Z-0.125000 I-0.315663 J-0.768626
G02 X49.771587 Y202.603941 Z-0.125000 I134.916216 J849.958832
G02 X49.494967 Y202.647972 Z-0.125000 I240.649112 J1512.531878
G01 X49.183760 Y202.697467 Z-0.125000
G02 X48.762339 Y202.767914 Z-0.125000 I7.903304 J48.574078
G02 X48.341792 Y202.841554 Z-0.125000 I10.708707 J62.393796
G01 X48.341792 Y203.029270 Z-0.125000
G01 X48.005172 Y203.025970 Z-0.125000
G02 X47.773538 Y203.024611 Z-0.125000 I-2.029428 J326.263848
G02 X47.541902 Y203.023403 Z-0.125000 I-2.159581 J391.948411
G01 X47.291546 Y203.021845 Z-0.125000
G02 X46.505948 Y203.042618 Z-0.125000 I-0.015354 J14.284810
G02 X45.722152 Y203.099663 Z-0.125000 I1.132730 J20.976880
G03 X44.113846 Y203.036678 Z-0.125000 I-0.505845 J-7.648658
G03 X42.531055 Y202.783649 Z-0.125000 I8.119352 J-55.866624
G02 X42.131307 Y202.750035 Z-0.125000 I-0.540813 J4.037745
G02 X41.729368 Y202.747696 Z-0.125000 I-0.241543 J6.971282
G02 X43.952896 Y203.348174 Z-0.125000 I2.210215 J-3.767246
G02 X46.315404 Y203.310843 Z-0.125000 I-0.282388 J-92.646054
G01 X46.315404 Y203.310843 Z-0.125000
G00 Z5.000000

(End cutting path id: path116)


(Start cutting path id: path17)
(Change tool to Default tool)

G00 Z5.000000
G00 X43.802470 Y208.109328

G01 Z-0.125000 F100.0(Penetrate)
G01 X44.142006 Y208.104195 Z-0.125000 F400.000000
G01 X44.395721 Y208.097596 Z-0.125000
G01 X44.395721 Y208.003738 Z-0.125000
G01 X42.902593 Y207.909880 Z-0.125000
G01 X42.902593 Y207.722165 Z-0.125000
G01 X43.154225 Y207.732064 Z-0.125000
G02 X45.371294 Y207.617007 Z-0.125000 I0.323359 J-15.187410
G02 X47.539456 Y207.222811 Z-0.125000 I-2.505032 J-19.937966
G03 X47.915622 Y207.141508 Z-0.125000 I2.232621 J9.418818
G03 X48.295185 Y207.071025 Z-0.125000 I3.947000 J20.198164
G02 X49.301965 Y206.817586 Z-0.125000 I-1.720913 J-8.962693
G02 X50.253249 Y206.454716 Z-0.125000 I-2.499999 J-7.982250
G03 X50.931154 Y206.220353 Z-0.125000 I1.978966 J4.626622
G03 X51.635142 Y206.038588 Z-0.125000 I10.621404 J39.683348
G02 X52.191608 Y205.825681 Z-0.125000 I-1.151028 J-3.842042
G02 X52.661251 Y205.510638 Z-0.125000 I-0.799725 J-1.699747
G03 X53.121260 Y205.260832 Z-0.125000 I0.836369 J0.991699
G03 X53.654448 Y205.117608 Z-0.125000 I2.509434 J8.277902
G02 X54.296664 Y204.828268 Z-0.125000 I-1.264575 J-3.664233
G02 X54.847617 Y204.437138 Z-0.125000 I-1.615245 J-2.858876
G01 X54.847617 Y204.155564 Z-0.125000
G01 X55.087584 Y204.079305 Z-0.125000
G02 X55.373175 Y203.952972 Z-0.125000 I-1.040767 J-2.738740
G02 X55.607513 Y203.815329 Z-0.125000 I-1.004538 J-1.978549
G03 X55.824355 Y203.710013 Z-0.125000 I0.356904 J0.458959
G03 X56.127441 Y203.686275 Z-0.125000 I0.222765 J0.897462
G02 X56.341392 Y203.537171 Z-0.125000 I-2.810722 J-4.261200
G02 X56.574047 Y203.357772 Z-0.125000 I-3.838827 J-5.218955
G01 X56.805265 Y203.172989 Z-0.125000
G01 X56.980657 Y203.029270 Z-0.125000
G01 X56.874005 Y202.747696 Z-0.125000
G01 X57.067312 Y202.671436 Z-0.125000
G02 X57.290634 Y202.545186 Z-0.125000 I-0.803637 J-1.682181
G02 X57.467257 Y202.407461 Z-0.125000 I-0.782778 J-1.185975
G03 X57.644449 Y202.302765 Z-0.125000 I0.279630 J0.270964
G03 X57.940525 Y202.278406 Z-0.125000 I0.213434 J0.782702
G02 X58.172915 Y202.103696 Z-0.125000 I-2.988121 J-4.216557
G02 X58.433791 Y201.885376 Z-0.125000 I-4.408876 J-5.533284
G01 X58.691255 Y201.664297 Z-0.125000
G02 X58.902865 Y201.325517 Z-0.125000 I-0.834260 J-0.756576
G02 X59.007045 Y200.964396 Z-0.125000 I-1.762363 J-0.704015
G03 X59.354983 Y200.726652 Z-0.125000 I1.059248 J1.176731
G03 X59.753609 Y200.588964 Z-0.125000 I0.712425 J1.416693
G02 X59.952485 Y200.375267 Z-0.125000 I-4.692892 J-4.566803
G02 X60.186883 Y200.102076 Z-0.125000 I-7.438045 J-6.618997
G01 X60.417268 Y199.828202 Z-0.125000
G02 X60.605011 Y199.463378 Z-0.125000 I-1.259916 J-0.879088
G02 X60.713477 Y199.087238 Z-0.125000 I-3.046230 J-1.082138
G03 X60.921103 Y198.767808 Z-0.125000 I9.854571 J6.178153
G03 X61.140085 Y198.453697 Z-0.125000 I9.883890 J6.657174
G02 X62.234853 Y196.759163 Z-0.125000 I-22.725717 J-15.883050
G02 X63.135072 Y194.999149 Z-0.125000 I-13.191946 J-7.857696
G03 X63.365543 Y194.578049 Z-0.125000 I2.558555 J1.126697
G03 X63.699733 Y194.206627 Z-0.125000 I1.430503 J0.951051
G02 X63.797602 Y193.984134 Z-0.125000 I-3.478074 J-1.662682
G02 X63.886374 Y193.743204 Z-0.125000 I-3.990367 J-1.607097
G01 X63.971362 Y193.500127 Z-0.125000
G02 X63.979957 Y193.192477 Z-0.125000 I-0.853832 J-0.177798
G02 X63.913037 Y192.892616 Z-0.125000 I-2.167915 J0.326413
G03 X63.953784 Y192.671096 Z-0.125000 I2.879890 J0.415221
G03 X64.013024 Y192.446791 Z-0.125000 I3.012094 J0.675529
G01 X64.075931 Y192.219480 Z-0.125000
G01 X64.126341 Y192.047895 Z-0.125000
G01 X64.339645 Y192.047895 Z-0.125000
G02 X64.518220 Y190.874589 Z-0.125000 I-3.503685 J-1.133494
G02 X64.446297 Y189.701448 Z-0.125000 I-11.659941 J0.126066
G01 X64.766253 Y189.701448 Z-0.125000
G02 X64.773141 Y189.017740 Z-0.125000 I-219.893055 J-2.557151
G02 X64.777970 Y188.334024 Z-0.125000 I-234.684779 J-1.999400
G03 X64.779861 Y188.101760 Z-0.125000 I92.813272 J0.639271
G03 X64.782343 Y187.869500 Z-0.125000 I89.523275 J0.840658
G02 X64.785342 Y187.534343 Z-0.125000 I-61.067429 J-0.714129
G02 X64.787078 Y187.199181 Z-0.125000 I-163.251797 J-1.013058
G03 X64.788719 Y187.096995 Z-0.125000 I4462.518572 J70.324115
G03 X64.790416 Y186.991712 Z-0.125000 I958.709116 J15.461660
G02 X64.726158 Y186.372889 Z-0.125000 I-3.004875 J-0.000725
G02 X64.552946 Y185.759416 Z-0.125000 I-4.590054 J0.964799
G03 X64.519477 Y185.553903 Z-0.125000 I3.661646 J-0.701810
G03 X64.500453 Y185.368586 Z-0.125000 I2.957765 J-0.397263
G01 X64.480065 Y185.162951 Z-0.125000
G01 X64.459626 Y184.949892 Z-0.125000
G02 X64.300033 Y184.032663 Z-0.125000 I-7.449712 J0.823706
G02 X64.018019 Y183.128462 Z-0.125000 I-6.787635 J1.620937
G03 X63.889651 Y182.738837 Z-0.125000 I4.564494 J-1.719799
G03 X63.786385 Y182.345335 Z-0.125000 I10.006527 J-2.836311
G02 X63.481640 Y181.460380 Z-0.125000 I-6.931935 J1.892148
G02 X63.106478 Y180.591365 Z-0.125000 I-40.710728 J17.059699
G01 X62.977043 Y180.299938 Z-0.125000
G02 X62.636693 Y179.617892 Z-0.125000 I-9.039628 J4.084953
G02 X62.419906 Y179.283221 Z-0.125000 I-2.380621 J1.304524
G01 X62.331168 Y179.032445 Z-0.125000
G02 X62.052169 Y178.477998 Z-0.125000 I-3.326912 J1.326695
G02 X61.706671 Y177.945746 Z-0.125000 I-11.844944 J7.310580
G01 X61.561977 Y177.731815 Z-0.125000
G02 X61.001892 Y176.948342 Z-0.125000 I-18.310489 J12.497756
G02 X60.393518 Y176.185910 Z-0.125000 I-12.549507 J9.389808
G01 X60.226874 Y175.987929 Z-0.125000
G02 X58.333670 Y174.013310 Z-0.125000 I-19.704238 J16.996935
G02 X56.127438 Y172.243878 Z-0.125000 I-12.438761 J13.249238
G01 X55.948765 Y172.121790 Z-0.125000
G02 X50.870772 Y169.556912 Z-0.125000 I-12.473584 J18.386247
G02 X45.142282 Y168.114131 Z-0.125000 I-10.631592 J30.118457
G01 X45.995498 Y167.644841 Z-0.125000
G01 X45.675542 Y167.457125 Z-0.125000
G01 X45.548893 Y167.586180 Z-0.125000
G03 X44.719491 Y167.922658 Z-0.125000 I-0.994091 J-1.259928
G03 X43.790388 Y167.985809 Z-0.125000 I-1.368052 J-13.261160
G01 X43.491388 Y167.997631 Z-0.125000
G03 X43.020374 Y168.015260 Z-0.125000 I-5.979225 J-153.445070
G03 X42.549309 Y168.032005 Z-0.125000 I-24.430624 J-680.654263
G02 X42.229245 Y168.044229 Z-0.125000 I32.517376 J855.780942
G02 X41.909188 Y168.056570 Z-0.125000 I34.465282 J897.840154
G03 X41.126101 Y168.085942 Z-0.125000 I-16.516230 J-429.873934
G03 X40.342945 Y168.114131 Z-0.125000 I-23.780037 J-649.787129
G01 X40.342945 Y168.207989 Z-0.125000
G01 X40.592651 Y168.212137 Z-0.125000
G03 X44.004866 Y168.348492 Z-0.125000 I-1.456215 J79.203924
G03 X47.381977 Y168.771137 Z-0.125000 I-1.660949 J26.975259
G03 X46.763367 Y168.702699 Z-0.125000 I11.919824 J-110.572627
G03 X46.145975 Y168.627670 Z-0.125000 I4.409748 J-38.864150
G02 X44.572947 Y168.497427 Z-0.125000 I-2.350369 J18.822643
G02 X42.991357 Y168.470246 Z-0.125000 I-1.361536 J33.196593
G03 X42.582549 Y168.471861 Z-0.125000 I-0.533007 J-83.214125
G03 X42.173735 Y168.472152 Z-0.125000 I-0.390779 J-261.831844
G02 X41.910959 Y168.472911 Z-0.125000 I1.677048 J626.126270
G02 X41.648182 Y168.473804 Z-0.125000 I1.361062 J439.224691
G01 X41.404110 Y168.474085 Z-0.125000
G02 X40.815403 Y168.498859 Z-0.125000 I0.068279 J8.629720
G02 X40.236293 Y168.583392 Z-0.125000 I0.324306 J4.247628
G01 X40.236293 Y168.677250 Z-0.125000
G01 X40.602154 Y168.681398 Z-0.125000
G03 X43.737392 Y168.781226 Z-0.125000 I-0.244448 J56.960380
G03 X46.848717 Y169.052682 Z-0.125000 I-3.350268 J56.365635
G01 X47.070562 Y169.088841 Z-0.125000
G03 X50.158653 Y169.852874 Z-0.125000 I-3.228682 J19.672566
G03 X53.034533 Y171.023698 Z-0.125000 I-7.666033 J22.947384
G02 X53.224080 Y171.112437 Z-0.125000 I565.476146 J-1207.608580
G02 X53.413648 Y171.201149 Z-0.125000 I563.768981 J-1204.474176
G03 X57.541525 Y173.901872 Z-0.125000 I-8.257336 J17.125750
G03 X60.820129 Y177.218320 Z-0.125000 I-18.618191 J21.684562
G01 X60.606825 Y177.406036 Z-0.125000
G01 X60.786801 Y177.555255 Z-0.125000
G03 X61.740896 Y178.695388 Z-0.125000 I-3.431444 J3.840803
G03 X62.419909 Y179.940199 Z-0.125000 I-11.481778 J7.070619
G01 X62.508595 Y180.119574 Z-0.125000
G03 X63.506332 Y182.625075 Z-0.125000 I-15.122405 J7.473430
G03 X64.126341 Y185.196241 Z-0.125000 I-20.290828 J6.253257
G01 X64.160138 Y185.384874 Z-0.125000
G03 X64.126607 Y190.528609 Z-0.125000 I-16.169403 J2.466571
G03 X62.526561 Y195.520610 Z-0.125000 I-17.802602 J-2.953698
G01 X62.366583 Y195.854246 Z-0.125000
G03 X60.705120 Y198.511722 Z-0.125000 I-16.522109 J-8.481567
G03 X58.580437 Y200.964368 Z-0.125000 I-18.391876 J-13.785935
G01 X58.430198 Y201.114963 Z-0.125000
G03 X54.905211 Y203.871628 Z-0.125000 I-13.231455 J-13.287191
G03 X50.688189 Y205.938864 Z-0.125000 I-13.784100 J-22.783787
G01 X50.484207 Y206.018011 Z-0.125000
G03 X46.393838 Y207.130329 Z-0.125000 I-7.553027 J-19.698041
G03 X42.096038 Y207.481654 Z-0.125000 I-4.252387 J-25.556581
G01 X41.872234 Y207.481691 Z-0.125000
G03 X40.930134 Y207.424706 Z-0.125000 I-0.017195 J-7.531880
G03 X40.022989 Y207.252875 Z-0.125000 I0.885075 J-7.152997
G02 X39.746502 Y207.256105 Z-0.125000 I-0.050039 J7.551149
G02 X39.436403 Y207.270473 Z-0.125000 I0.285425 J9.513744
G03 X33.046613 Y205.844304 Z-0.125000 I-0.169854 J-14.266441
G03 X27.896324 Y202.570246 Z-0.125000 I11.576888 J-23.899019
G02 X27.431443 Y202.205453 Z-0.125000 I-12.918177 J15.983909
G02 X26.957702 Y201.847613 Z-0.125000 I-44.404637 J58.294458
G03 X26.805357 Y201.703567 Z-0.125000 I0.523157 J-0.705883
G03 X26.691489 Y201.527543 Z-0.125000 I0.675382 J-0.561738
G01 X26.478185 Y201.527543 Z-0.125000
G01 X26.397779 Y201.364758 Z-0.125000
G02 X26.147643 Y201.045945 Z-0.125000 I-1.613487 J1.008385
G02 X25.844939 Y200.753215 Z-0.125000 I-4.998646 J4.866095
G03 X23.939509 Y198.520472 Z-0.125000 I10.443338 J-10.841799
G03 X22.532061 Y196.083785 Z-0.125000 I13.590895 J-9.475015
G01 X22.382082 Y195.770681 Z-0.125000
G03 X22.189471 Y195.364344 Z-0.125000 I90.257548 J-43.032519
G03 X21.998801 Y194.957490 Z-0.125000 I94.598500 J-44.581158
G01 X21.785497 Y194.957490 Z-0.125000
G02 X22.077639 Y195.909735 Z-0.125000 I5.221549 J-1.080996
G02 X22.518730 Y196.828782 Z-0.125000 I8.379365 J-3.456252
G01 X22.674672 Y197.113357 Z-0.125000
G02 X24.275571 Y199.414788 Z-0.125000 I12.785178 J-7.185984
G02 X26.264881 Y201.527543 Z-0.125000 I21.362510 J-18.121419
G01 X26.011583 Y201.345693 Z-0.125000
G02 X25.725189 Y201.163617 Z-0.125000 I-2.496020 J3.609786
G02 X25.518317 Y201.058254 Z-0.125000 I-1.034039 J1.774479
G02 X25.744596 Y201.520627 Z-0.125000 I0.789129 J-0.099633
G02 X26.158229 Y201.902975 Z-0.125000 I4.979385 J-4.971914
G01 X26.425692 Y202.144952 Z-0.125000
G02 X30.906955 Y205.201411 Z-0.125000 I13.631484 J-15.172602
G02 X36.290169 Y207.159017 Z-0.125000 I11.060408 J-22.034533
G01 X36.559091 Y207.223499 Z-0.125000
G02 X38.830859 Y207.614343 Z-0.125000 I4.490557 J-19.303503
G02 X41.138904 Y207.817191 Z-0.125000 I5.288598 J-46.942500
G01 X41.368848 Y207.832246 Z-0.125000
G02 X41.679702 Y207.851616 Z-0.125000 I4.807397 J-74.644736
G02 X41.990635 Y207.870169 Z-0.125000 I16.946905 J-281.399531
G03 X42.888849 Y208.017372 Z-0.125000 I-0.819339 J7.813527
G02 X43.802470 Y208.109328 Z-0.125000 I0.837844 J-3.739730
G01 X43.802470 Y208.109328 Z-0.125000
G00 Z5.000000

(End cutting path id: path17)


(Start cutting path id: path7)
(Change tool to Default tool)

G00 Z5.000000
G00 X43.802470 Y208.109328

G01 Z-0.125000 F100.0(Penetrate)
G01 X44.142006 Y208.104195 Z-0.125000 F400.000000
G01 X44.395721 Y208.097596 Z-0.125000
G01 X44.395721 Y208.003738 Z-0.125000
G01 X42.902593 Y207.909880 Z-0.125000
G01 X42.902593 Y207.722165 Z-0.125000
G01 X43.154225 Y207.732064 Z-0.125000
G02 X45.371294 Y207.617007 Z-0.125000 I0.323359 J-15.187410
G02 X47.539456 Y207.222811 Z-0.125000 I-2.505032 J-19.937966
G03 X47.915622 Y207.141508 Z-0.125000 I2.232621 J9.418818
G03 X48.295185 Y207.071025 Z-0.125000 I3.947000 J20.198164
G02 X49.301965 Y206.817586 Z-0.125000 I-1.720913 J-8.962693
G02 X50.253249 Y206.454716 Z-0.125000 I-2.499999 J-7.982250
G03 X50.931154 Y206.220353 Z-0.125000 I1.978966 J4.626622
G03 X51.635142 Y206.038588 Z-0.125000 I10.621404 J39.683348
G02 X52.191608 Y205.825681 Z-0.125000 I-1.151028 J-3.842042
G02 X52.661251 Y205.510638 Z-0.125000 I-0.799725 J-1.699747
G03 X53.121260 Y205.260832 Z-0.125000 I0.836369 J0.991699
G03 X53.654448 Y205.117608 Z-0.125000 I2.509434 J8.277902
G02 X54.296664 Y204.828268 Z-0.125000 I-1.264575 J-3.664233
G02 X54.847617 Y204.437138 Z-0.125000 I-1.615245 J-2.858876
G01 X54.847617 Y204.155564 Z-0.125000
G01 X55.087584 Y204.079305 Z-0.125000
G02 X55.373175 Y203.952972 Z-0.125000 I-1.040767 J-2.738740
G02 X55.607513 Y203.815329 Z-0.125000 I-1.004538 J-1.978549
G03 X55.824355 Y203.710013 Z-0.125000 I0.356904 J0.458959
G03 X56.127441 Y203.686275 Z-0.125000 I0.222765 J0.897462
G02 X56.341392 Y203.537171 Z-0.125000 I-2.810722 J-4.261200
G02 X56.574047 Y203.357772 Z-0.125000 I-3.838827 J-5.218955
G01 X56.805265 Y203.172989 Z-0.125000
G01 X56.980657 Y203.029270 Z-0.125000
G01 X56.874005 Y202.747696 Z-0.125000
G01 X57.067312 Y202.671436 Z-0.125000
G02 X57.290634 Y202.545186 Z-0.125000 I-0.803637 J-1.682181
G02 X57.467257 Y202.407461 Z-0.125000 I-0.782778 J-1.185975
G03 X57.644449 Y202.302765 Z-0.125000 I0.279630 J0.270964
G03 X57.940525 Y202.278406 Z-0.125000 I0.213434 J0.782702
G02 X58.172915 Y202.103696 Z-0.125000 I-2.988121 J-4.216557
G02 X58.433791 Y201.885376 Z-0.125000 I-4.408876 J-5.533284
G01 X58.691255 Y201.664297 Z-0.125000
G02 X58.902865 Y201.325517 Z-0.125000 I-0.834260 J-0.756576
G02 X59.007045 Y200.964396 Z-0.125000 I-1.762363 J-0.704015
G03 X59.354983 Y200.726652 Z-0.125000 I1.059248 J1.176731
G03 X59.753609 Y200.588964 Z-0.125000 I0.712425 J1.416693
G02 X59.952485 Y200.375267 Z-0.125000 I-4.692892 J-4.566803
G02 X60.186883 Y200.102076 Z-0.125000 I-7.438045 J-6.618997
G01 X60.417268 Y199.828202 Z-0.125000
G02 X60.605011 Y199.463378 Z-0.125000 I-1.259916 J-0.879088
G02 X60.713477 Y199.087238 Z-0.125000 I-3.046230 J-1.082138
G03 X60.921103 Y198.767808 Z-0.125000 I9.854571 J6.178153
G03 X61.140085 Y198.453697 Z-0.125000 I9.883890 J6.657174
G02 X62.234853 Y196.759163 Z-0.125000 I-22.725717 J-15.883050
G02 X63.135072 Y194.999149 Z-0.125000 I-13.191946 J-7.857696
G03 X63.365543 Y194.578049 Z-0.125000 I2.558555 J1.126697
G03 X63.699733 Y194.206627 Z-0.125000 I1.430503 J0.951051
G02 X63.797602 Y193.984134 Z-0.125000 I-3.478074 J-1.662682
G02 X63.886374 Y193.743204 Z-0.125000 I-3.990367 J-1.607097
G01 X63.971362 Y193.500127 Z-0.125000
G02 X63.979957 Y193.192477 Z-0.125000 I-0.853832 J-0.177798
G02 X63.913037 Y192.892616 Z-0.125000 I-2.167915 J0.326413
G03 X63.953784 Y192.671096 Z-0.125000 I2.879890 J0.415221
G03 X64.013024 Y192.446791 Z-0.125000 I3.012094 J0.675529
G01 X64.075931 Y192.219480 Z-0.125000
G01 X64.126341 Y192.047895 Z-0.125000
G01 X64.339645 Y192.047895 Z-0.125000
G02 X64.518220 Y190.874589 Z-0.125000 I-3.503685 J-1.133494
G02 X64.446297 Y189.701448 Z-0.125000 I-11.659941 J0.126066
G01 X64.766253 Y189.701448 Z-0.125000
G02 X64.773141 Y189.017740 Z-0.125000 I-219.893055 J-2.557151
G02 X64.777970 Y188.334024 Z-0.125000 I-234.684779 J-1.999400
G03 X64.779861 Y188.101760 Z-0.125000 I92.813272 J0.639271
G03 X64.782343 Y187.869500 Z-0.125000 I89.523275 J0.840658
G02 X64.785342 Y187.534343 Z-0.125000 I-61.067429 J-0.714129
G02 X64.787078 Y187.199181 Z-0.125000 I-163.251797 J-1.013058
G03 X64.788719 Y187.096995 Z-0.125000 I4462.518572 J70.324115
G03 X64.790416 Y186.991712 Z-0.125000 I958.709116 J15.461660
G02 X64.726158 Y186.372889 Z-0.125000 I-3.004875 J-0.000725
G02 X64.552946 Y185.759416 Z-0.125000 I-4.590054 J0.964799
G03 X64.519477 Y185.553903 Z-0.125000 I3.661646 J-0.701810
G03 X64.500453 Y185.368586 Z-0.125000 I2.957765 J-0.397263
G01 X64.480065 Y185.162951 Z-0.125000
G01 X64.459626 Y184.949892 Z-0.125000
G02 X64.300033 Y184.032663 Z-0.125000 I-7.449712 J0.823706
G02 X64.018019 Y183.128462 Z-0.125000 I-6.787635 J1.620937
G03 X63.889651 Y182.738837 Z-0.125000 I4.564494 J-1.719799
G03 X63.786385 Y182.345335 Z-0.125000 I10.006527 J-2.836311
G02 X63.481640 Y181.460380 Z-0.125000 I-6.931935 J1.892148
G02 X63.106478 Y180.591365 Z-0.125000 I-40.710728 J17.059699
G01 X62.977043 Y180.299938 Z-0.125000
G02 X62.636693 Y179.617892 Z-0.125000 I-9.039628 J4.084953
G02 X62.419906 Y179.283221 Z-0.125000 I-2.380621 J1.304524
G01 X62.331168 Y179.032445 Z-0.125000
G02 X62.052169 Y178.477998 Z-0.125000 I-3.326912 J1.326695
G02 X61.706671 Y177.945746 Z-0.125000 I-11.844944 J7.310580
G01 X61.561977 Y177.731815 Z-0.125000
G02 X61.001892 Y176.948342 Z-0.125000 I-18.310489 J12.497756
G02 X60.393518 Y176.185910 Z-0.125000 I-12.549507 J9.389808
G01 X60.226874 Y175.987929 Z-0.125000
G02 X58.333670 Y174.013310 Z-0.125000 I-19.704238 J16.996935
G02 X56.127438 Y172.243878 Z-0.125000 I-12.438761 J13.249238
G01 X55.948765 Y172.121790 Z-0.125000
G02 X50.870772 Y169.556912 Z-0.125000 I-12.473584 J18.386247
G02 X45.142282 Y168.114131 Z-0.125000 I-10.631592 J30.118457
G01 X45.995498 Y167.644841 Z-0.125000
G01 X45.675542 Y167.457125 Z-0.125000
G01 X45.548893 Y167.586180 Z-0.125000
G03 X44.821385 Y167.898935 Z-0.125000 I-0.946927 J-1.200159
G03 X43.995773 Y167.955745 Z-0.125000 I-0.789200 J-5.441592
G01 X43.767679 Y167.955370 Z-0.125000
G03 X42.938797 Y167.867806 Z-0.125000 I0.075695 J-4.683415
G03 X42.156026 Y167.644833 Z-0.125000 I0.946136 J-4.806996
G01 X42.475982 Y167.926406 Z-0.125000
G01 X42.064789 Y167.937039 Z-0.125000
G02 X37.019073 Y168.498871 Z-0.125000 I0.971329 J31.661577
G02 X32.285716 Y170.023544 Z-0.125000 I3.928927 J20.307083
G03 X31.931086 Y170.141309 Z-0.125000 I-0.509670 J-0.941949
G03 X31.624141 Y170.120335 Z-0.125000 I-0.105101 J-0.718377
G01 X31.384174 Y169.991280 Z-0.125000
G01 X31.137541 Y169.885690 Z-0.125000
G01 X30.957566 Y169.803564 Z-0.125000
G01 X31.490826 Y170.460570 Z-0.125000
G01 X31.268356 Y170.530230 Z-0.125000
G02 X30.744778 Y170.764972 Z-0.125000 I1.743877 J4.590899
G02 X30.250997 Y171.035449 Z-0.125000 I6.130926 J11.778521
G01 X30.053758 Y171.147868 Z-0.125000
G02 X29.290831 Y171.605063 Z-0.125000 I12.323582 J21.429626
G02 X28.547480 Y172.081819 Z-0.125000 I18.839948 J30.192888
G03 X28.159883 Y172.311468 Z-0.125000 I-4.141231 J-6.547575
G03 X27.758006 Y172.525444 Z-0.125000 I-6.668997 J-12.040942
G01 X27.758006 Y172.337728 Z-0.125000
G01 X27.438050 Y172.431586 Z-0.125000
G01 X27.651354 Y172.713159 Z-0.125000
G01 X27.342647 Y172.961003 Z-0.125000
G02 X25.502307 Y174.538777 Z-0.125000 I26.311082 J32.551841
G02 X23.918534 Y176.279760 Z-0.125000 I8.348138 J9.185177
G01 X23.918534 Y176.467475 Z-0.125000
G01 X23.692732 Y176.340987 Z-0.125000
G01 X23.398606 Y176.180036 Z-0.125000
G01 X23.106146 Y176.018350 Z-0.125000
G01 X22.852014 Y175.904328 Z-0.125000
G01 X22.638710 Y175.998186 Z-0.125000
G02 X22.818338 Y176.115834 Z-0.125000 I21.696831 J-32.931107
G02 X22.998661 Y176.232831 Z-0.125000 I36.918308 J-56.703658
G01 X23.201133 Y176.364818 Z-0.125000
G02 X23.392093 Y176.441239 Z-0.125000 I0.392592 J-0.704211
G02 X23.598578 Y176.467475 Z-0.125000 I0.206485 J-0.799422
G03 X23.078726 Y177.426061 Z-0.125000 I-6.597531 J-2.957663
G03 X22.466234 Y178.352700 Z-0.125000 I-40.062775 J-25.815080
G02 X22.015178 Y179.130107 Z-0.125000 I6.203941 J4.119113
G02 X21.678842 Y179.940218 Z-0.125000 I5.460705 J2.742010
G01 X20.932278 Y179.752502 Z-0.125000
G02 X21.081842 Y179.889987 Z-0.125000 I3.246669 J-3.381798
G02 X21.252234 Y180.034076 Z-0.125000 I3.736745 J-4.246113
G01 X21.465538 Y180.034076 Z-0.125000
G01 X21.374405 Y180.264252 Z-0.125000
G02 X20.101974 Y183.997033 Z-0.125000 I39.495044 J15.546344
G02 X19.972410 Y185.102402 Z-0.125000 I3.246743 J0.940838
G01 X19.676617 Y184.975914 Z-0.125000
G01 X19.292504 Y184.814962 Z-0.125000
G01 X18.910056 Y184.653277 Z-0.125000
G01 X18.585934 Y184.539255 Z-0.125000
G01 X18.372630 Y184.633113 Z-0.125000
G02 X18.625360 Y184.774527 Z-0.125000 I19.705409 J-34.920134
G02 X18.879227 Y184.914686 Z-0.125000 I33.806287 J-60.932519
G01 X19.164188 Y185.073072 Z-0.125000
G02 X19.446951 Y185.159770 Z-0.125000 I0.490046 J-1.093803
G02 X19.865758 Y185.196260 Z-0.125000 I0.418807 J-2.385146
G01 X19.822848 Y185.534295 Z-0.125000
G02 X19.647348 Y187.334760 Z-0.125000 I36.277528 J4.444919
G02 X19.545802 Y189.138292 Z-0.125000 I55.703284 J4.040947
G01 X19.277089 Y189.032335 Z-0.125000
G01 X18.925887 Y188.897781 Z-0.125000
G01 X18.577185 Y188.762493 Z-0.125000
G02 X18.265823 Y188.716829 Z-0.125000 I-0.310720 J1.034306
G02 X17.946022 Y188.762869 Z-0.125000 I0.000677 J1.138433
G01 X18.311805 Y188.866993 Z-0.125000
G03 X19.136684 Y189.196024 Z-0.125000 I-1.147478 J4.075212
G03 X19.802016 Y189.651586 Z-0.125000 I-1.626040 J3.088407
G03 X19.849897 Y190.097987 Z-0.125000 I-3.742944 J0.627231
G03 X19.865758 Y190.546169 Z-0.125000 I-18.224226 J0.869331
G02 X19.940590 Y191.001294 Z-0.125000 I11.606861 J-1.674680
G02 X20.025736 Y191.455417 Z-0.125000 I83.629917 J-15.445279
G01 X20.064403 Y191.678238 Z-0.125000
G02 X20.194473 Y192.332525 Z-0.125000 I13.755238 J-2.394432
G02 X20.356680 Y192.982899 Z-0.125000 I13.466809 J-3.013286
G03 X20.406137 Y193.406169 Z-0.125000 I-2.053246 J0.454434
G03 X20.399018 Y193.831195 Z-0.125000 I-6.733222 J0.099794
G01 X20.718974 Y193.737337 Z-0.125000
G01 X20.785632 Y194.065840 Z-0.125000
G02 X22.844983 Y198.320239 Z-0.125000 I11.686225 J-3.031126
G02 X26.264878 Y201.996833 Z-0.125000 I19.775392 J-14.965826
G01 X26.509011 Y202.218279 Z-0.125000
G02 X30.954749 Y205.235972 Z-0.125000 I13.181516 J-14.635693
G02 X36.290166 Y207.159017 Z-0.125000 I11.096661 J-22.424294
G01 X36.559087 Y207.223499 Z-0.125000
G02 X38.830856 Y207.614343 Z-0.125000 I4.490557 J-19.303503
G02 X41.138900 Y207.817191 Z-0.125000 I5.288598 J-46.942500
G01 X41.368844 Y207.832246 Z-0.125000
G02 X41.679698 Y207.851616 Z-0.125000 I4.807396 J-74.644736
G02 X41.990632 Y207.870169 Z-0.125000 I16.946913 J-281.399530
G03 X42.888850 Y208.017372 Z-0.125000 I-0.819337 J7.813548
G02 X43.802470 Y208.109328 Z-0.125000 I0.837843 J-3.739733
G01 X43.802470 Y208.109328 Z-0.125000
G00 Z5.000000

(End cutting path id: path7)


(Start cutting path id: path7)
(Change tool to Default tool)

G00 Z5.000000
G00 X40.022989 Y207.346733

G01 Z-0.125000 F100.0(Penetrate)
G02 X39.746502 Y207.349963 Z-0.125000 I-0.050039 J7.551149 F400.000000
G02 X39.436403 Y207.364331 Z-0.125000 I0.285425 J9.513744
G03 X33.045996 Y205.939234 Z-0.125000 I-0.169993 J-14.278167
G03 X27.896324 Y202.663737 Z-0.125000 I11.507681 J-23.778005
G02 X27.432519 Y202.302814 Z-0.125000 I-10.530966 J13.054365
G02 X26.957702 Y201.950637 Z-0.125000 I-31.693094 J42.233554
G03 X26.804991 Y201.782215 Z-0.125000 I0.400218 J-0.516328
G03 X26.691489 Y201.527543 Z-0.125000 I0.831648 J-0.523277
G01 X26.478185 Y201.527543 Z-0.125000
G03 X22.189242 Y195.957396 Z-0.125000 I10.118847 J-12.227676
G03 X20.599137 Y189.681564 Z-0.125000 I16.000080 J-7.393292
G03 X20.598967 Y186.868219 Z-0.125000 I27.596448 J-1.408336
G03 X21.038933 Y184.069974 Z-0.125000 I13.485245 J0.686566
G01 X21.111632 Y183.789775 Z-0.125000
G03 X21.575495 Y182.259865 Z-0.125000 I21.212276 J5.596211
G03 X22.201274 Y180.762950 Z-0.125000 I11.787612 J4.048500
G02 X22.289228 Y180.497002 Z-0.125000 I-1.210383 J-0.547816
G02 X22.318757 Y180.221800 Z-0.125000 I-1.267630 J-0.275202
G02 X22.198704 Y180.474024 Z-0.125000 I377.453771 J179.814131
G02 X22.078790 Y180.726286 Z-0.125000 I711.580951 J338.409583
G01 X21.943809 Y181.010060 Z-0.125000
G01 X21.785497 Y181.348095 Z-0.125000
G01 X21.683923 Y181.551851 Z-0.125000
G02 X21.296623 Y182.542744 Z-0.125000 I6.186708 J2.989270
G02 X21.018936 Y183.553755 Z-0.125000 I18.542409 J5.636547
G03 X20.936831 Y183.880816 Z-0.125000 I-329.064626 J-82.434190
G03 X20.854375 Y184.207827 Z-0.125000 I-298.467879 J-75.084699
G01 X20.783057 Y184.496550 Z-0.125000
G03 X20.712361 Y184.718452 Z-0.125000 I-1.432914 J-0.334303
G03 X20.612325 Y184.914695 Z-0.125000 I-1.218569 J-0.497551
G01 X20.292369 Y184.914695 Z-0.125000
G03 X21.273119 Y180.627071 Z-0.125000 I14.514538 J1.064071
G03 X23.918537 Y176.749058 Z-0.125000 I9.909473 J3.918524
G01 X24.345145 Y176.749058 Z-0.125000
G03 X24.010959 Y177.399392 Z-0.125000 I-3.535073 J-1.405532
G03 X23.598581 Y178.022005 Z-0.125000 I-22.334287 J-14.344872
G02 X23.455164 Y178.233328 Z-0.125000 I257.572850 J174.959954
G02 X23.311954 Y178.444733 Z-0.125000 I239.289778 J162.254024
G01 X23.184055 Y178.632288 Z-0.125000
G02 X23.012316 Y178.908877 Z-0.125000 I5.851600 J3.824978
G02 X22.852017 Y179.189363 Z-0.125000 I10.568587 J6.226023
G02 X23.284358 Y178.742594 Z-0.125000 I-1.213037 J-1.606436
G02 X23.618579 Y178.250784 Z-0.125000 I-14.246936 J-10.041292
G03 X24.267602 Y177.344330 Z-0.125000 I14.568198 J9.745297
G03 X24.985057 Y176.467484 Z-0.125000 I13.819437 J10.575426
G01 X25.186697 Y176.235039 Z-0.125000
G03 X26.456345 Y174.900218 Z-0.125000 I19.935093 J17.690529
G03 X27.864661 Y173.651747 Z-0.125000 I13.044098 J13.295613
G01 X27.971313 Y173.651747 Z-0.125000
G01 X27.971313 Y174.590326 Z-0.125000
G02 X28.068016 Y173.674633 Z-0.125000 I-42.322975 J-4.932530
G02 X28.077965 Y173.464031 Z-0.125000 I-2.224060 J-0.210602
G03 X28.409889 Y173.219140 Z-0.125000 I7.720825 J10.117357
G03 X28.751206 Y172.983009 Z-0.125000 I8.472194 J11.881467
G01 X28.958547 Y172.842429 Z-0.125000
G03 X29.167506 Y172.701661 Z-0.125000 I55.752512 J82.534980
G03 X29.376954 Y172.561336 Z-0.125000 I55.275669 J82.277015
G02 X29.622832 Y172.395906 Z-0.125000 I-26.406032 J-39.512635
G02 X29.867719 Y172.229580 Z-0.125000 I-65.852807 J-97.220945
G03 X30.301333 Y171.950650 Z-0.125000 I9.769521 J14.710803
G03 X30.744265 Y171.680731 Z-0.125000 I14.085248 J22.615274
G01 X30.950591 Y171.557588 Z-0.125000
G03 X32.293043 Y170.930710 Z-0.125000 I4.008193 J6.832636
G03 X33.837173 Y170.742152 Z-0.125000 I1.190318 J3.330855
G01 X34.050477 Y170.648294 Z-0.125000
G01 X33.090609 Y170.648294 Z-0.125000
G03 X34.386524 Y169.985060 Z-0.125000 I2.737760 J3.751717
G03 X35.863561 Y169.615857 Z-0.125000 I3.344488 J10.240867
G01 X35.436953 Y170.085147 Z-0.125000
G02 X35.938849 Y169.717274 Z-0.125000 I-6.158490 J-8.928456
G02 X36.101862 Y169.567828 Z-0.125000 I-0.841206 J-1.081201
G03 X40.241349 Y168.405322 Z-0.125000 I3.593364 J4.844098
G02 X44.609025 Y168.677278 Z-0.125000 I6.956115 J-76.507747
G03 X45.734768 Y168.788912 Z-0.125000 I-1.099447 J16.818984
G03 X46.848717 Y168.958852 Z-0.125000 I-3.918931 J29.424427
G01 X47.075717 Y168.995424 Z-0.125000
G03 X50.161160 Y169.759603 Z-0.125000 I-3.229081 J19.648668
G03 X53.034533 Y170.929868 Z-0.125000 I-7.682551 J22.975772
G02 X53.224080 Y171.018606 Z-0.125000 I565.476145 J-1207.608581
G02 X53.413648 Y171.107318 Z-0.125000 I563.768981 J-1204.474176
G03 X57.601109 Y173.850442 Z-0.125000 I-8.343241 J17.303914
G03 X60.926781 Y177.218347 Z-0.125000 I-19.054464 J22.141463
G01 X60.820129 Y177.406063 Z-0.125000
G01 X60.993439 Y177.587912 Z-0.125000
G03 X64.012656 Y183.759908 Z-0.125000 I-9.755235 J8.596534
G03 X64.273743 Y190.275480 Z-0.125000 I-21.793452 J4.136308
G03 X63.671033 Y192.937943 Z-0.125000 I-15.811682 J-2.179889
G03 X62.633213 Y195.520638 Z-0.125000 I-17.973611 J-5.722580
G01 X62.473235 Y195.854273 Z-0.125000
G03 X60.811620 Y198.511705 Z-0.125000 I-16.512884 J-8.476831
G03 X58.687089 Y200.964396 Z-0.125000 I-18.426930 J-13.815001
G01 X58.538568 Y201.113478 Z-0.125000
G03 X54.966719 Y203.922755 Z-0.125000 I-13.671165 J-13.706823
G03 X50.688189 Y206.032722 Z-0.125000 I-13.743351 J-22.475439
G01 X50.484207 Y206.111869 Z-0.125000
G03 X46.393838 Y207.224187 Z-0.125000 I-7.553027 J-19.698041
G03 X42.096038 Y207.575512 Z-0.125000 I-4.252387 J-25.556581
G01 X41.872234 Y207.575549 Z-0.125000
G03 X40.930134 Y207.518564 Z-0.125000 I-0.017195 J-7.531880
G03 X40.022989 Y207.346733 Z-0.125000 I0.885075 J-7.152997
G01 X40.022989 Y207.346733 Z-0.125000
G00 Z5.000000

(End cutting path id: path7)


(Start cutting path id: path89)
(Change tool to Default tool)

G00 Z5.000000
G00 X39.276372 Y207.252875

G01 Z-0.125000 F100.0(Penetrate)
G02 X38.969039 Y206.988110 Z-0.125000 I-0.524375 J0.297927 F400.000000
G02 X38.536474 Y206.830514 Z-0.125000 I-4.417358 J11.452241
G03 X38.080329 Y206.644767 Z-0.125000 I1.099143 J-3.352150
G03 X37.676592 Y206.408154 Z-0.125000 I1.404098 J-2.858596
G02 X37.432418 Y206.332645 Z-0.125000 I-2.219866 J6.745855
G02 X37.149998 Y206.255635 Z-0.125000 I-2.591781 J8.948498
G01 X36.867120 Y206.181575 Z-0.125000
G02 X36.608471 Y206.141717 Z-0.125000 I-0.473295 J2.212199
G02 X36.290116 Y206.126580 Z-0.125000 I-0.318355 J3.340169
G01 X36.230124 Y205.962329 Z-0.125000
G02 X35.839778 Y205.620695 Z-0.125000 I-0.945296 J0.686264
G02 X35.330248 Y205.375717 Z-0.125000 I-2.865527 J5.307632
G01 X35.116944 Y205.469575 Z-0.125000
G02 X35.319846 Y205.761354 Z-0.125000 I0.683579 J-0.258920
G02 X35.636872 Y205.968195 Z-0.125000 I0.894948 J-1.025317
G03 X36.094516 Y206.326250 Z-0.125000 I-0.721381 J1.393515
G03 X36.396768 Y206.783586 Z-0.125000 I-1.511700 J1.327628
G02 X37.000447 Y207.030472 Z-0.125000 I1.163086 J-1.982446
G02 X37.656595 Y207.176615 Z-0.125000 I3.063922 J-12.210244
G01 X37.913434 Y207.230694 Z-0.125000
G02 X38.588890 Y207.312433 Z-0.125000 I0.886516 J-4.494091
G02 X39.276372 Y207.252875 Z-0.125000 I0.120326 J-2.608690
G01 X39.276372 Y207.252875 Z-0.125000
G00 Z5.000000

(End cutting path id: path89)


(Start cutting path id: path78)
(Change tool to Default tool)

G00 Z5.000000
G00 X34.690336 Y211.476481

G01 Z-0.125000 F100.0(Penetrate)
G01 X34.690336 Y211.288765 Z-0.125000 F400.000000
G02 X34.519280 Y211.179603 Z-0.125000 I-1.900225 J2.789033
G02 X34.297057 Y211.054120 Z-0.125000 I-2.735028 J4.584077
G01 X34.075837 Y210.933865 Z-0.125000
G02 X32.770637 Y210.598435 Z-0.125000 I-1.500385 J3.131128
G02 X31.384124 Y210.631759 Z-0.125000 I-0.486142 J8.634042
G02 X30.653444 Y210.917395 Z-0.125000 I0.920926 J3.433196
G02 X30.104300 Y211.382623 Z-0.125000 I0.767476 J1.462623
G02 X32.395836 Y211.469560 Z-0.125000 I2.888528 J-45.893212
G02 X34.690336 Y211.476481 Z-0.125000 I1.494441 J-115.101389
G01 X34.690336 Y211.476481 Z-0.125000
G00 Z5.000000

(End cutting path id: path78)


(Start cutting path id: path52)
(Change tool to Default tool)

G00 Z5.000000
G00 X30.317604 Y214.292218

G01 Z-0.125000 F100.0(Penetrate)
G02 X31.795488 Y214.296178 Z-0.125000 I0.769947 J-11.568141 F400.000000
G02 X32.277335 Y214.172329 Z-0.125000 I-0.080225 J-1.311383
G02 X32.538022 Y213.911493 Z-0.125000 I-2.292953 J-2.552340
G02 X32.770600 Y213.635212 Z-0.125000 I-4.250502 J-3.814178
G03 X32.952708 Y213.449722 Z-0.125000 I17.568131 J17.065709
G03 X33.137216 Y213.265647 Z-0.125000 I18.261080 J18.119470
G01 X33.320524 Y213.077564 Z-0.125000
G03 X33.755203 Y212.676853 Z-0.125000 I6.504852 J6.620137
G03 X34.209985 Y212.289671 Z-0.125000 I25.619104 J29.631418
G02 X34.332319 Y212.117423 Z-0.125000 I-0.409068 J-0.420092
G02 X34.370380 Y211.945770 Z-0.125000 I-0.368041 J-0.171653
G01 X34.690336 Y211.851912 Z-0.125000
G01 X34.796988 Y211.664196 Z-0.125000
G01 X35.010292 Y211.664196 Z-0.125000
G03 X35.666374 Y212.950365 Z-0.125000 I-3.264466 J2.475642
G03 X35.970160 Y214.292218 Z-0.125000 I-9.159755 J2.779021
G01 X36.076812 Y214.292218 Z-0.125000
G02 X35.961324 Y212.936126 Z-0.125000 I-6.015681 J-0.170655
G02 X35.356078 Y211.656497 Z-0.125000 I-2.877743 J0.578181
G03 X35.246472 Y211.472222 Z-0.125000 I0.422241 J-0.375881
G03 X35.223596 Y211.288765 Z-0.125000 I0.395439 J-0.142463
G03 X35.526677 Y211.174028 Z-0.125000 I36.636222 J96.317933
G03 X35.830179 Y211.059986 Z-0.125000 I63.969740 J169.783626
G01 X36.171382 Y210.931298 Z-0.125000
G03 X36.597470 Y210.809006 Z-0.125000 I1.560485 J4.633573
G03 X37.036680 Y210.725617 Z-0.125000 I1.115151 J4.675178
G01 X37.036680 Y210.631759 Z-0.125000
G01 X35.330248 Y210.537902 Z-0.125000
G01 X35.330248 Y210.725617 Z-0.125000
G01 X35.756856 Y210.819475 Z-0.125000
G03 X35.336125 Y210.995238 Z-0.125000 I-1.144137 J-2.147328
G03 X34.890308 Y211.089317 Z-0.125000 I-0.722349 J-2.319696
G03 X34.558217 Y210.927538 Z-0.125000 I1.103420 J-2.686782
G03 X34.263728 Y210.725617 Z-0.125000 I1.050555 J-1.847881
G01 X34.263728 Y210.444044 Z-0.125000
G02 X32.362752 Y210.349912 Z-0.125000 I-1.876875 J18.661290
G02 X30.530908 Y210.725617 Z-0.125000 I0.006018 J4.683004
G01 X30.744212 Y209.787038 Z-0.125000
G01 X30.530908 Y209.787038 Z-0.125000
G02 X30.450727 Y210.086182 Z-0.125000 I190.910603 J51.330958
G02 X30.370930 Y210.385382 Z-0.125000 I324.610201 J86.734193
G01 X30.280942 Y210.721951 Z-0.125000
G02 X30.224645 Y211.008846 Z-0.125000 I3.031428 J0.743832
G02 X30.210952 Y211.194907 Z-0.125000 I1.257292 J0.186060
G01 X30.104300 Y211.382623 Z-0.125000
G01 X33.197208 Y211.570338 Z-0.125000
G01 X33.197208 Y211.758054 Z-0.125000
G01 X34.157076 Y211.851912 Z-0.125000
G01 X34.008893 Y211.989445 Z-0.125000
G02 X33.672916 Y212.301896 Z-0.125000 I301.420754 J324.454222
G02 X33.337189 Y212.614508 Z-0.125000 I1411.822781 J1516.544567
G01 X33.104096 Y212.830821 Z-0.125000
G02 X32.611976 Y213.296376 Z-0.125000 I31.632619 J33.930424
G02 X32.141936 Y213.775266 Z-0.125000 I7.809748 J8.135542
G03 X31.922572 Y213.984616 Z-0.125000 I-0.997867 J-0.825994
G03 X31.704080 Y214.104502 Z-0.125000 I-0.525883 J-0.699381
G03 X31.351124 Y214.133632 Z-0.125000 I-1.790784 J-19.545011
G03 X30.997511 Y214.157297 Z-0.125000 I-1.996826 J-27.184164
G01 X30.613397 Y214.181128 Z-0.125000
G01 X30.317604 Y214.198360 Z-0.125000
G01 X30.317604 Y214.292218 Z-0.125000
G01 X30.317604 Y214.292218 Z-0.125000
G00 Z5.000000

(End cutting path id: path52)


(Start cutting path id: path6)
(Change tool to Default tool)

G00 Z5.000000
G00 X27.383821 Y214.313805

G01 Z-0.125000 F100.0(Penetrate)
G01 X27.623557 Y214.313674 Z-0.125000 F400.000000
G02 X27.875567 Y214.312911 Z-0.125000 I-0.158716 J-94.003309
G02 X28.127573 Y214.311490 Z-0.125000 I-0.434063 J-99.343338
G03 X28.506007 Y214.309898 Z-0.125000 I0.510214 J76.281367
G03 X28.884448 Y214.309589 Z-0.125000 I0.359280 J207.976046
G02 X30.295800 Y214.282945 Z-0.125000 I-0.089258 J-42.122975
G02 X31.704060 Y214.198316 Z-0.125000 I-1.030372 J-28.904830
G01 X31.704060 Y214.104458 Z-0.125000
G01 X27.224676 Y214.104458 Z-0.125000
G03 X27.891527 Y213.461344 Z-0.125000 I7.379852 J6.984960
G03 X28.611152 Y212.884305 Z-0.125000 I6.654725 J7.561854
G01 X28.797793 Y212.632062 Z-0.125000
G03 X28.917188 Y212.476345 Z-0.125000 I22.526714 J17.148583
G03 X29.037760 Y212.321158 Z-0.125000 I26.566467 J20.516250
G01 X29.165919 Y212.148313 Z-0.125000
G03 X29.586994 Y211.806226 Z-0.125000 I1.308477 J1.180407
G03 X30.142608 Y211.612663 Z-0.125000 I0.774356 J1.328543
G03 X30.797024 Y211.610498 Z-0.125000 I0.382992 J16.854664
G03 X31.450761 Y211.628956 Z-0.125000 I-0.434140 J26.962304
G02 X31.785839 Y211.637556 Z-0.125000 I2.474839 J-89.884147
G02 X32.120949 Y211.645288 Z-0.125000 I5.448771 J-228.906196
G03 X32.340207 Y211.650468 Z-0.125000 I-1.943527 J86.904532
G03 X32.559444 Y211.656207 Z-0.125000 I-2.121588 J85.244118
G02 X33.573552 Y211.641929 Z-0.125000 I0.318136 J-13.425823
G02 X34.583664 Y211.570294 Z-0.125000 I-1.384599 J-26.681545
G01 X34.583664 Y211.476436 Z-0.125000
G01 X30.210932 Y211.288721 Z-0.125000
G01 X30.424236 Y211.007147 Z-0.125000
G02 X29.925156 Y211.128146 Z-0.125000 I0.032654 J1.224453
G02 X29.531025 Y211.388445 Z-0.125000 I0.763804 J1.585048
G02 X29.041252 Y211.859896 Z-0.125000 I14.334970 J15.382203
G02 X28.566158 Y212.340222 Z-0.125000 I28.457713 J28.622816
G01 X28.397848 Y212.508873 Z-0.125000
G01 X28.254118 Y212.667625 Z-0.125000
G03 X27.887597 Y212.813289 Z-0.125000 I-0.493761 J-0.708452
G03 X27.471309 Y212.854974 Z-0.125000 I-0.641289 J-4.304748
G01 X27.150103 Y212.873673 Z-0.125000
G01 X26.904720 Y212.884305 Z-0.125000
G01 X26.904720 Y212.978163 Z-0.125000
G01 X27.757936 Y213.072021 Z-0.125000
G03 X27.562942 Y213.287024 Z-0.125000 I-13.725553 J-12.252248
G03 X27.364657 Y213.500247 Z-0.125000 I-23.313024 J-21.480955
G01 X27.143437 Y213.741125 Z-0.125000
G03 X26.906258 Y213.884826 Z-0.125000 I-0.487776 J-0.537493
G03 X26.658087 Y213.919675 Z-0.125000 I-0.204649 J-0.556293
G03 X26.111113 Y213.699726 Z-0.125000 I1.665160 J-4.931043
G03 X25.591567 Y213.441586 Z-0.125000 I5.571605 J-11.865625
G01 X25.383054 Y213.334346 Z-0.125000
G03 X25.130405 Y213.203526 Z-0.125000 I29.380194 J-57.050481
G03 X24.878332 Y213.072021 Z-0.125000 I76.779684 J-147.480734
G01 X25.944852 Y212.978163 Z-0.125000
G01 X25.944852 Y212.884305 Z-0.125000
G01 X24.451724 Y212.884305 Z-0.125000
G01 X24.549627 Y212.605939 Z-0.125000
G02 X24.728902 Y212.093854 Z-0.125000 I-258.061554 J-90.631304
G02 X24.907390 Y211.581614 Z-0.125000 I-546.856675 J-190.838488
G03 X24.984819 Y211.360090 Z-0.125000 I157.299562 J54.855848
G03 X25.062578 Y211.138631 Z-0.125000 I154.645420 J54.174702
G02 X25.174112 Y210.819981 Z-0.125000 I-104.498698 J-36.755632
G02 X25.284943 Y210.501194 Z-0.125000 I-276.305636 J-96.240533
G01 X25.355636 Y210.301763 Z-0.125000
G02 X25.474064 Y209.862754 Z-0.125000 I-3.150885 J-1.085464
G02 X25.518244 Y209.411563 Z-0.125000 I-2.281806 J-0.451191
G01 X27.118024 Y209.411563 Z-0.125000
G01 X27.118024 Y209.317705 Z-0.125000
G02 X26.374092 Y209.235426 Z-0.125000 I-1.013173 J5.756408
G02 X25.624896 Y209.223847 Z-0.125000 I-0.563581 J12.221676
G01 X25.731548 Y209.036131 Z-0.125000
G02 X25.714987 Y207.892437 Z-0.125000 I-5.710506 J-0.489276
G02 X25.304940 Y206.783541 Z-0.125000 I-2.473095 J0.284238
G01 X25.198288 Y206.595826 Z-0.125000
G01 X25.411592 Y206.595826 Z-0.125000
G01 X25.411592 Y206.408110 Z-0.125000
G01 X24.984984 Y206.408110 Z-0.125000
G01 X24.771680 Y206.126536 Z-0.125000
G01 X25.838200 Y206.126536 Z-0.125000
G02 X25.300210 Y205.939288 Z-0.125000 I-0.741426 J1.263738
G02 X24.715438 Y205.886392 Z-0.125000 I-0.830765 J5.925354
G03 X24.344889 Y205.760252 Z-0.125000 I0.177181 J-1.127820
G03 X24.025116 Y205.563389 Z-0.125000 I1.751754 J-3.203581
G01 X23.705160 Y205.563389 Z-0.125000
G01 X23.705160 Y205.751105 Z-0.125000
G01 X21.358816 Y205.375673 Z-0.125000
G01 X22.425336 Y205.281815 Z-0.125000
G01 X22.425336 Y205.094099 Z-0.125000
G01 X22.112046 Y205.058903 Z-0.125000
G01 X21.785424 Y205.000241 Z-0.125000
G01 X21.678772 Y204.812525 Z-0.125000
G01 X21.625446 Y204.994375 Z-0.125000
G01 X21.465468 Y205.187957 Z-0.125000
G03 X21.159698 Y205.218205 Z-0.125000 I-10.830562 J-107.922014
G03 X20.853677 Y205.246779 Z-0.125000 I-3.648436 J-37.421820
G02 X20.263077 Y205.397785 Z-0.125000 I0.412955 J2.845552
G02 X19.705710 Y205.616184 Z-0.125000 I6.171406 J16.570234
G01 X19.470742 Y205.709858 Z-0.125000
G02 X19.187934 Y205.823805 Z-0.125000 I19.202767 J48.068087
G02 X18.905820 Y205.938820 Z-0.125000 I49.365473 J121.488778
G01 X18.905820 Y206.126536 Z-0.125000
G01 X18.697932 Y206.152567 Z-0.125000
G02 X18.054152 Y206.330892 Z-0.125000 I1.054179 J5.056986
G02 X17.432689 Y206.554763 Z-0.125000 I10.019191 J28.787647
G01 X17.177933 Y206.648437 Z-0.125000
G02 X16.868569 Y206.762690 Z-0.125000 I49.788429 J135.288709
G02 X16.559476 Y206.877399 Z-0.125000 I130.547387 J352.244424
G01 X16.486985 Y206.682718 Z-0.125000
G02 X16.178384 Y206.210120 Z-0.125000 I-2.403959 J1.232703
G02 X15.799580 Y205.768703 Z-0.125000 I-8.649717 J7.039550
G01 X15.648351 Y205.598769 Z-0.125000
G02 X15.464380 Y205.393163 Z-0.125000 I-47.371375 J42.201474
G02 X15.279652 Y205.187957 Z-0.125000 I-122.400383 J110.000609
G01 X16.559476 Y205.281815 Z-0.125000
G01 X16.559476 Y205.094099 Z-0.125000
G01 X15.173000 Y204.906383 Z-0.125000
G01 X15.450045 Y204.607578 Z-0.125000
G02 X17.105941 Y202.781973 Z-0.125000 I-87.654834 J-81.170143
G02 X17.519344 Y202.278362 Z-0.125000 I-6.241287 J-5.544822
G03 X18.375580 Y202.285702 Z-0.125000 I0.375160 J6.181311
G03 X19.225776 Y202.372220 Z-0.125000 I-1.403676 J18.014324
G01 X19.225776 Y202.184504 Z-0.125000
G01 X17.945952 Y201.996788 Z-0.125000
G03 X18.124927 Y201.541939 Z-0.125000 I10.861946 J4.011331
G03 X18.332566 Y201.093406 Z-0.125000 I6.070094 J2.537697
G02 X18.487603 Y199.836039 Z-0.125000 I-2.163548 J-0.905015
G02 X18.114262 Y198.618271 Z-0.125000 I-4.308354 J0.654735
G02 X17.709230 Y198.073919 Z-0.125000 I-2.874808 J1.716176
G02 X17.199388 Y197.585467 Z-0.125000 I-3.970787 J3.634368
G01 X17.412692 Y197.491609 Z-0.125000
G01 X17.412692 Y197.303893 Z-0.125000
G02 X17.029524 Y197.189267 Z-0.125000 I-75.161180 J250.548517
G02 X16.646130 Y197.075115 Z-0.125000 I-107.730107 J361.122073
G01 X16.428453 Y197.009671 Z-0.125000
G02 X15.617455 Y196.810516 Z-0.125000 I-2.514942 J8.490467
G02 X14.778549 Y196.730091 Z-0.125000 I-0.828233 J4.223747
G01 X14.487500 Y196.730112 Z-0.125000
G03 X14.334159 Y196.730850 Z-0.125000 I-4.336262 J-901.144091
G03 X14.177720 Y196.731576 Z-0.125000 I-4.514200 J-937.924047
G01 X13.857200 Y196.731952 Z-0.125000
G02 X13.351925 Y196.733162 Z-0.125000 I0.583084 J348.723338
G02 X12.846653 Y196.734852 Z-0.125000 I3.536201 J1133.442821
G03 X12.503471 Y196.735540 Z-0.125000 I-7.917414 J-3860.964016
G03 X12.160290 Y196.736138 Z-0.125000 I-1.515370 J-772.191157
G02 X11.320302 Y196.738115 Z-0.125000 I1.115125 J652.263156
G02 X10.480312 Y196.740718 Z-0.125000 I12.348950 J4120.490815
G01 X9.840400 Y194.675844 Z-0.125000
G01 X11.013572 Y194.957418 Z-0.125000
G01 X11.333528 Y194.863560 Z-0.125000
G02 X10.425598 Y194.610264 Z-0.125000 I-2.217214 J6.193650
G02 X9.947052 Y194.581986 Z-0.125000 I-0.338641 J1.667475
G01 X9.947052 Y194.394270 Z-0.125000
G01 X10.138276 Y194.345875 Z-0.125000
G01 X10.393657 Y194.276948 Z-0.125000
G01 X10.644873 Y194.210955 Z-0.125000
G02 X11.062794 Y193.997079 Z-0.125000 I-0.722761 J-1.927556
G02 X11.440180 Y193.737265 Z-0.125000 I-8.111346 J-12.185912
G03 X11.757615 Y193.590065 Z-0.125000 I6.188001 J12.928447
G03 X12.080092 Y193.449825 Z-0.125000 I6.110621 J13.610327
G02 X12.551848 Y193.243997 Z-0.125000 I-9.055217 J-21.397991
G02 X13.008714 Y193.018666 Z-0.125000 I-2.924310 J-6.504948
G03 X13.258067 Y192.907817 Z-0.125000 I0.611412 J1.039481
G03 X13.539891 Y192.851481 Z-0.125000 I0.401605 J1.275976
G01 X13.786524 Y192.798686 Z-0.125000
G02 X13.893795 Y192.611172 Z-0.125000 I-27.629536 J-15.930418
G02 X13.999828 Y192.423255 Z-0.125000 I-37.222614 J-21.126873
G03 X14.173580 Y192.280284 Z-0.125000 I4.371550 J5.135656
G03 X14.353112 Y192.141681 Z-0.125000 I4.905515 J6.168564
G02 X15.024907 Y191.279743 Z-0.125000 I-1.853298 J-2.137229
G02 X15.319646 Y190.301553 Z-0.125000 I-2.618571 J-1.322502
G02 X15.106479 Y188.920568 Z-0.125000 I-4.066519 J-0.079242
G02 X14.426436 Y187.636502 Z-0.125000 I-4.286711 J1.448141
G01 X14.426436 Y187.354928 Z-0.125000
G02 X14.026596 Y187.199309 Z-0.125000 I-144.737434 J371.289962
G02 X13.626546 Y187.044024 Z-0.125000 I-213.852768 J550.340242
G01 X13.401577 Y186.956215 Z-0.125000
G02 X12.757563 Y186.716803 Z-0.125000 I-9.269623 J23.949304
G02 X12.103891 Y186.494510 Z-0.125000 I-7.867411 J22.062509
G03 X11.679978 Y186.351178 Z-0.125000 I9.197346 J-27.900234
G03 X11.258122 Y186.204069 Z-0.125000 I39.179053 J-113.029815
G01 X10.935458 Y186.091329 Z-0.125000
G03 X10.603707 Y185.974970 Z-0.125000 I76.802377 J-219.502260
G03 X10.272216 Y185.858152 Z-0.125000 I80.611696 J-229.276798
G01 X9.951635 Y185.746511 Z-0.125000
G01 X9.661752 Y185.644703 Z-0.125000
G02 X9.410861 Y185.591940 Z-0.125000 I-0.457378 J1.551993
G02 X9.093836 Y185.571628 Z-0.125000 I-0.317025 J2.463825
G01 X9.140496 Y185.323785 Z-0.125000
G02 X9.282335 Y184.229803 Z-0.125000 I-11.725261 J-2.076411
G02 X9.307140 Y183.131322 Z-0.125000 I-9.127500 J-0.755628
G01 X9.840400 Y183.225180 Z-0.125000
G01 X9.840400 Y183.131322 Z-0.125000
G01 X10.184025 Y183.094201 Z-0.125000
G02 X10.823110 Y183.023591 Z-0.125000 I-20.882627 J-191.935707
G02 X11.461922 Y182.951444 Z-0.125000 I-47.182813 J-420.632882
G03 X11.736931 Y182.920826 Z-0.125000 I13.334139 J118.517994
G03 X12.012054 Y182.890858 Z-0.125000 I12.465300 J113.157993
G02 X14.866824 Y182.249961 Z-0.125000 I-1.389678 J-12.868611
G02 X16.023716 Y181.498341 Z-0.125000 I-0.943709 J-2.718707
G02 X16.693698 Y180.154789 Z-0.125000 I-2.537758 J-2.104315
G02 X16.772780 Y178.720001 Z-0.125000 I-3.952676 J-0.937435
G02 X16.586369 Y178.150990 Z-0.125000 I-6.001045 J1.650928
G02 X16.346172 Y177.593706 Z-0.125000 I-6.711378 J2.562302
G01 X16.986084 Y177.781422 Z-0.125000
G02 X16.657955 Y177.504049 Z-0.125000 I-2.026344 J2.064367
G02 X16.264100 Y177.283902 Z-0.125000 I-1.127464 J1.554707
G03 X15.737113 Y176.978533 Z-0.125000 I1.397757 J-3.019566
G03 X15.272986 Y176.619931 Z-0.125000 I4.138720 J-5.836260
G01 X15.110300 Y176.486477 Z-0.125000
G03 X14.723230 Y176.159303 Z-0.125000 I13.021870 J-15.798348
G03 X14.346864 Y175.824338 Z-0.125000 I12.549477 J-14.479530
G02 X14.091188 Y175.664713 Z-0.125000 I-0.694713 J0.828165
G02 X13.893176 Y175.622690 Z-0.125000 I-0.198012 J0.445508
G01 X13.786524 Y175.341117 Z-0.125000
G02 X13.576983 Y175.150841 Z-0.125000 I-5.854943 J6.237220
G02 X13.359916 Y174.965685 Z-0.125000 I-6.500821 J7.401421
G01 X13.186606 Y174.807300 Z-0.125000
G02 X13.032056 Y174.696814 Z-0.125000 I-0.783779 J0.933029
G02 X12.826656 Y174.590254 Z-0.125000 I-0.933469 J1.548068
G03 X13.045148 Y173.947351 Z-0.125000 I1.651915 J0.202829
G03 X13.419907 Y173.352502 Z-0.125000 I10.386965 J6.128396
G02 X13.553764 Y173.151165 Z-0.125000 I-73.494916 J-49.007206
G02 X13.686954 Y172.949573 Z-0.125000 I-66.762894 J-44.254727
G01 X13.806756 Y172.770955 Z-0.125000
G02 X13.870410 Y172.613209 Z-0.125000 I-0.552213 J-0.314547
G02 X13.893176 Y172.431522 Z-0.125000 I-0.713613 J-0.181687
G03 X15.396820 Y172.788068 Z-0.125000 I-23.272025 J101.492945
G03 X16.891097 Y173.168453 Z-0.125000 I-20.325345 J82.969796
G02 X17.258035 Y173.261795 Z-0.125000 I5.642373 J-21.412749
G02 X17.627662 Y173.348836 Z-0.125000 I4.874274 J-19.870702
G03 X18.389423 Y173.610710 Z-0.125000 I-0.854868 J3.725591
G03 X19.055799 Y174.007675 Z-0.125000 I-1.633613 J3.500108
G02 X19.234727 Y174.091395 Z-0.125000 I0.365976 J-0.549101
G02 X19.439080 Y174.120964 Z-0.125000 I0.204353 J-0.691368
G01 X19.439080 Y173.933248 Z-0.125000
G02 X19.170030 Y173.785319 Z-0.125000 I-4.513080 J7.889651
G02 X18.905820 Y173.651675 Z-0.125000 I-3.946763 J7.474599
G01 X19.155786 Y173.603280 Z-0.125000
G02 X20.849538 Y173.056193 Z-0.125000 I-1.619580 J-7.909568
G02 X22.170371 Y172.027127 Z-0.125000 I-1.451379 J-3.225078
G02 X22.623851 Y171.088005 Z-0.125000 I-3.433740 J-2.237123
G02 X22.811950 Y170.096807 Z-0.125000 I-3.561974 J-1.189397
G01 X22.824448 Y169.901025 Z-0.125000
G02 X22.838679 Y169.664563 Z-0.125000 I-40.339035 J-2.546438
G02 X22.851944 Y169.428069 Z-0.125000 I-102.817082 J-5.885644
G01 X23.385204 Y169.615785 Z-0.125000
G02 X22.878065 Y169.198425 Z-0.125000 I-3.728545 J4.013804
G02 X22.618643 Y169.058504 Z-0.125000 I-0.648778 J0.892419
G03 X22.348147 Y168.758997 Z-0.125000 I0.262636 J-0.509098
G03 X22.212032 Y168.395632 Z-0.125000 I11.175270 J-4.393371
G02 X21.607388 Y167.118471 Z-0.125000 I-30.650579 J13.729141
G02 X20.932208 Y165.861469 Z-0.125000 I-21.486856 J10.731510
G01 X21.145512 Y165.767611 Z-0.125000
G01 X20.718904 Y165.579895 Z-0.125000
G03 X21.687996 Y164.793282 Z-0.125000 I5.940851 J6.328751
G03 X22.745292 Y164.078169 Z-0.125000 I24.060487 J34.434317
G03 X23.337188 Y164.376993 Z-0.125000 I-1.137017 J2.987758
G03 X23.871804 Y164.735174 Z-0.125000 I-9.221198 J14.341489
G01 X24.071672 Y164.873463 Z-0.125000
G03 X24.687382 Y165.325408 Z-0.125000 I-9.658217 J13.803331
G03 X25.278277 Y165.796942 Z-0.125000 I-13.058362 J16.969874
G02 X25.940433 Y166.270002 Z-0.125000 I3.797786 J-4.615917
G02 X26.681417 Y166.664027 Z-0.125000 I3.469503 J-5.630837
G03 X26.994583 Y166.943330 Z-0.125000 I-0.605677 J0.994326
G03 X27.224676 Y167.269337 Z-0.125000 I-3.373617 J2.625274
G02 X27.461677 Y167.383871 Z-0.125000 I1.724390 J-3.265746
G02 X27.651284 Y167.457053 Z-0.125000 I0.886719 J-2.015180
G01 X27.437980 Y166.987764 Z-0.125000
G03 X27.715277 Y166.989113 Z-0.125000 I0.000000 J28.498523
G03 X27.992487 Y166.994362 Z-0.125000 I-0.146577 J15.063368
G02 X29.589635 Y166.790439 Z-0.125000 I0.106773 J-5.520216
G02 X30.977493 Y166.119577 Z-0.125000 I-1.182002 J-4.216302
G02 X31.807603 Y165.074115 Z-0.125000 I-1.976607 J-2.421741
G02 X32.237320 Y163.890452 Z-0.125000 I-5.261340 J-2.579908
G01 X33.090536 Y164.641315 Z-0.125000
G01 X33.090536 Y164.359741 Z-0.125000
G02 X32.883126 Y164.210871 Z-0.125000 I-4.864197 J6.558010
G02 X32.670594 Y164.066436 Z-0.125000 I-7.319757 J10.542190
G03 X32.265839 Y163.504727 Z-0.125000 I0.946374 J-1.108618
G03 X32.130668 Y162.881480 Z-0.125000 I1.736488 J-0.702895
G03 X32.126391 Y162.447381 Z-0.125000 I14.000431 J-0.354998
G03 X32.130668 Y162.013294 Z-0.125000 I51.634753 J0.291639
G02 X32.129064 Y161.752801 Z-0.125000 I-122.769612 J0.625788
G02 X32.126918 Y161.492309 Z-0.125000 I-127.954691 J0.923732
G03 X32.125781 Y160.814218 Z-0.125000 I61.550819 J-0.442245
G03 X32.130668 Y160.136136 Z-0.125000 I100.458183 J0.384922
G01 X32.663928 Y160.511568 Z-0.125000
G02 X32.481729 Y160.218070 Z-0.125000 I-2.246236 J1.191133
G02 X32.237320 Y159.948420 Z-0.125000 I-1.312567 J0.944109
G03 X32.907174 Y159.704453 Z-0.125000 I1.446497 J2.930029
G03 X33.623796 Y159.572989 Z-0.125000 I1.479869 J6.047948
G02 X33.825282 Y159.502238 Z-0.125000 I-2.457472 J-7.320765
G02 X34.023741 Y159.426336 Z-0.125000 I-2.655830 J-7.241482
G03 X34.364042 Y159.314783 Z-0.125000 I0.644460 J1.391143
G03 X34.690316 Y159.291415 Z-0.125000 I0.253768 J1.253738
G01 X34.886122 Y159.622118 Z-0.125000
G02 X35.840544 Y161.198181 Z-0.125000 I93.335127 J-55.444217
G02 X36.823356 Y162.764157 Z-0.125000 I105.225679 J-64.948602
G01 X37.036660 Y162.764157 Z-0.125000
G01 X37.119149 Y162.933175 Z-0.125000
G02 X37.346530 Y163.205074 Z-0.125000 I1.140763 J-0.722960
G02 X37.636577 Y163.438761 Z-0.125000 I1.953229 J-2.127467
G03 X37.818146 Y163.569436 Z-0.125000 I-9.507462 J13.401721
G03 X37.996528 Y163.702736 Z-0.125000 I-5.905633 J8.088933
G01 X37.996528 Y163.796594 Z-0.125000
G01 X36.823356 Y164.078168 Z-0.125000
G02 X37.316602 Y164.131695 Z-0.125000 I0.492408 J-2.238125
G02 X37.789890 Y164.084034 Z-0.125000 I-0.000872 J-2.382442
G03 X38.639147 Y164.014647 Z-0.125000 I0.723121 J3.618714
G03 X39.489656 Y164.078168 Z-0.125000 I-0.361258 J10.562806
G01 X39.702960 Y164.641315 Z-0.125000
G01 X39.916264 Y164.641315 Z-0.125000
G01 X39.702960 Y164.172026 Z-0.125000
G01 X40.109570 Y164.148561 Z-0.125000
G02 X41.516389 Y163.830871 Z-0.125000 I-0.598309 J-5.923208
G02 X42.689216 Y163.139589 Z-0.125000 I-1.219794 J-3.410046
G02 X43.077186 Y162.677102 Z-0.125000 I-7.506987 J-6.691431
G02 X43.435780 Y162.201010 Z-0.125000 I-10.428533 J-8.227878
G01 X43.649084 Y162.294868 Z-0.125000
G01 X43.578911 Y162.149887 Z-0.125000
G03 X43.626911 Y161.681260 Z-0.125000 I0.908146 J-0.143754
G03 X43.811979 Y161.235667 Z-0.125000 I6.941301 J2.621702
G01 X43.898517 Y161.037285 Z-0.125000
G03 X44.036417 Y160.724394 Z-0.125000 I50.879195 J22.236969
G03 X44.175678 Y160.411844 Z-0.125000 I162.037774 J72.010956
G02 X44.314053 Y160.098711 Z-0.125000 I-177.242795 J-78.511718
G02 X44.451697 Y159.785397 Z-0.125000 I-121.668120 J-53.637447
G03 X44.537571 Y159.590668 Z-0.125000 I44.627097 J19.563975
G03 X44.624391 Y159.396179 Z-0.125000 I41.709176 J18.502393
G02 X44.763917 Y159.022083 Z-0.125000 I-3.137270 J-1.383168
G02 X44.822256 Y158.634410 Z-0.125000 I-1.258905 J-0.387673
G01 X45.142212 Y158.728267 Z-0.125000
G01 X45.142212 Y158.540552 Z-0.125000
G01 X45.404259 Y158.581615 Z-0.125000
G02 X46.548363 Y158.706064 Z-0.125000 I2.203521 J-14.936346
G02 X47.701860 Y158.728267 Z-0.125000 I0.794319 J-11.292140
G01 X47.695194 Y159.089034 Z-0.125000
G02 X47.740985 Y159.951075 Z-0.125000 I8.137172 J-0.000000
G02 X47.839341 Y160.810374 Z-0.125000 I54.941305 J-5.853346
G03 X47.900234 Y161.509082 Z-0.125000 I-11.871759 J1.386649
G03 X47.909150 Y162.209373 Z-0.125000 I-7.796011 J0.449455
G02 X47.982916 Y162.586532 Z-0.125000 I1.208259 J-0.040525
G02 X48.128468 Y162.951873 Z-0.125000 I7.001545 J-2.577742
G01 X48.175128 Y163.251045 Z-0.125000
G02 X48.314867 Y163.548482 Z-0.125000 I0.748489 J-0.170104
G02 X48.555076 Y163.796594 Z-0.125000 I1.201007 J-0.922417
G03 X48.742639 Y163.980822 Z-0.125000 I-21.950488 J22.535489
G03 X48.928358 Y164.166160 Z-0.125000 I-24.518796 J24.754934
G01 X49.118332 Y164.356442 Z-0.125000
G03 X49.557544 Y164.861313 Z-0.125000 I-4.943825 J4.744364
G03 X49.941552 Y165.392178 Z-0.125000 I-6.297496 J4.959688
G02 X49.910869 Y165.118712 Z-0.125000 I-1.233986 J-0.000000
G02 X49.834900 Y164.922889 Z-0.125000 I-0.701056 J0.159324
G03 X50.093897 Y164.997624 Z-0.125000 I-0.519155 J2.285299
G03 X50.368160 Y165.110605 Z-0.125000 I-0.942205 J2.676600
G03 X50.488520 Y165.350004 Z-0.125000 I-2.988465 J1.652440
G03 X50.581464 Y165.579894 Z-0.125000 I-2.662377 J1.210118
G01 X50.794768 Y165.673752 Z-0.125000
G01 X50.581464 Y165.204463 Z-0.125000
G01 X51.328028 Y165.298320 Z-0.125000
G01 X51.434680 Y166.143042 Z-0.125000
G01 X51.541332 Y166.143042 Z-0.125000
G01 X51.541332 Y165.392178 Z-0.125000
G01 X51.934611 Y165.421509 Z-0.125000
G02 X53.286550 Y165.176110 Z-0.125000 I0.005304 J-3.817492
G02 X54.420936 Y164.547457 Z-0.125000 I-1.577352 J-4.184096
G03 X54.753246 Y164.869199 Z-0.125000 I-1.754595 J2.144718
G03 X55.027519 Y165.222061 Z-0.125000 I-2.940466 J2.568588
G01 X55.168750 Y165.425542 Z-0.125000
G01 X55.274152 Y165.579894 Z-0.125000
G01 X55.380804 Y165.298320 Z-0.125000
G02 X55.139019 Y164.976489 Z-0.125000 I-3.084053 J2.065236
G02 X54.874207 Y164.665147 Z-0.125000 I-25.061124 J21.047486
G03 X54.764625 Y164.454716 Z-0.125000 I0.549546 J-0.419924
G03 X54.746725 Y164.264051 Z-0.125000 I0.429437 J-0.136490
G03 X54.981602 Y163.953989 Z-0.125000 I1.134132 J0.615133
G03 X55.287483 Y163.679272 Z-0.125000 I3.636793 J3.741704
G02 X55.852868 Y163.174348 Z-0.125000 I-9.863258 J-11.613319
G02 X56.387332 Y162.650135 Z-0.125000 I-11.716035 J-12.479701
G03 X56.729078 Y162.326325 Z-0.125000 I5.628619 J5.598158
G03 X57.087236 Y162.013294 Z-0.125000 I15.038476 J16.844999
G02 X57.247332 Y161.872587 Z-0.125000 I-132.829759 J-151.295941
G02 X57.407192 Y161.731720 Z-0.125000 I-91.088144 J-103.530035
G01 X57.539674 Y161.933735 Z-0.125000
G01 X57.713816 Y162.195144 Z-0.125000
G01 X57.886293 Y162.455820 Z-0.125000
G02 X58.067090 Y162.645123 Z-0.125000 I0.881596 J-0.660997
G02 X58.260408 Y162.764157 Z-0.125000 I0.527117 J-0.639567
G01 X58.160421 Y162.552977 Z-0.125000
G03 X58.047683 Y162.274333 Z-0.125000 I2.712231 J-1.259493
G03 X57.940452 Y161.919436 Z-0.125000 I4.297537 J-1.492135
G01 X59.646884 Y162.764157 Z-0.125000
G03 X59.551556 Y163.359565 Z-0.125000 I-11.244261 J-1.494925
G03 X59.426914 Y163.937381 Z-0.125000 I-10.713789 J-2.008747
G01 X59.326928 Y164.265884 Z-0.125000
G01 X59.113624 Y164.265884 Z-0.125000
G01 X59.129872 Y164.550024 Z-0.125000
G03 X59.040728 Y165.101071 Z-0.125000 I-2.392094 J-0.104240
G03 X58.853659 Y165.632689 Z-0.125000 I-4.435803 J-1.262173
G02 X58.511663 Y167.222204 Z-0.125000 I4.209912 J1.737345
G02 X58.859077 Y168.815059 Z-0.125000 I3.329471 J0.108129
G02 X59.062034 Y169.093193 Z-0.125000 I1.988246 J-1.237718
G02 X59.326930 Y169.334210 Z-0.125000 I1.064328 J-0.903699
G01 X59.540234 Y169.334210 Z-0.125000
G02 X59.364054 Y168.957963 Z-0.125000 I-6.789240 J2.949724
G02 X59.160286 Y168.589213 Z-0.125000 I-4.847276 J2.437888
G03 X58.947043 Y167.950419 Z-0.125000 I1.778955 J-0.948843
G03 X58.898239 Y167.297567 Z-0.125000 I4.058650 J-0.631654
G02 X58.898715 Y167.184580 Z-0.125000 I-5268.186406 J-9.713376
G02 X58.899199 Y167.068170 Z-0.125000 I-1131.764748 J-5.321524
G02 X58.899781 Y166.982338 Z-0.125000 I-68.037590 J-0.506135
G03 X58.900372 Y166.893905 Z-0.125000 I84.761388 J0.523978
G01 X59.024261 Y167.099196 Z-0.125000
G02 X59.301893 Y167.556897 Z-0.125000 I192.002671 J-116.151832
G02 X59.580278 Y168.014333 Z-0.125000 I857.677057 J-521.649492
G01 X59.775252 Y168.337520 Z-0.125000
G01 X59.962726 Y168.644575 Z-0.125000
G01 X60.135358 Y168.929058 Z-0.125000
G02 X60.308558 Y169.120105 Z-0.125000 I0.829231 J-0.577732
G02 X60.500152 Y169.240352 Z-0.125000 I0.504804 J-0.591561
G02 X60.550928 Y168.962258 Z-0.125000 I-0.732378 J-0.277404
G02 X60.499725 Y168.756306 Z-0.125000 I-0.441371 J0.000389
G01 X60.333498 Y168.523220 Z-0.125000
G01 X60.156022 Y168.265477 Z-0.125000
G02 X59.967485 Y167.998686 Z-0.125000 I-69.442369 J48.873937
G02 X59.777740 Y167.732394 Z-0.125000 I-67.617994 J47.979979
G03 X59.472949 Y167.172142 Z-0.125000 I1.978134 J-1.439188
G03 X59.340301 Y166.596200 Z-0.125000 I1.960367 J-0.754750
G01 X59.433621 Y166.330757 Z-0.125000
G01 X59.007013 Y166.424615 Z-0.125000
G03 X59.490808 Y164.819816 Z-0.125000 I22.861157 J6.016571
G03 X60.073533 Y163.233447 Z-0.125000 I33.654364 J11.462135
G01 X60.157897 Y163.390549 Z-0.125000
G02 X60.355558 Y163.757861 Z-0.125000 I416.291066 J-223.781115
G02 X60.553467 Y164.125097 Z-0.125000 I1077.093110 J-580.224094
G01 X60.698838 Y164.395145 Z-0.125000
G02 X61.042402 Y165.024305 Z-0.125000 I72.627488 J-39.251098
G02 X61.397102 Y165.649922 Z-0.125000 I27.117324 J-14.961084
G01 X61.515002 Y165.852669 Z-0.125000
G02 X61.624155 Y166.037847 Z-0.125000 I32.756749 J-19.183626
G02 X61.734555 Y166.222601 Z-0.125000 I29.283143 J-17.372780
G03 X62.017818 Y166.811918 Z-0.125000 I-3.464194 J2.027845
G03 X62.055579 Y167.444930 Z-0.125000 I-0.979696 J0.376074
G03 X61.948929 Y167.733535 Z-0.125000 I-7.971469 J-2.781743
G03 X61.833291 Y168.020200 Z-0.125000 I-12.820802 J-5.005113
G02 X61.640020 Y168.661223 Z-0.125000 I3.040391 J1.266338
G02 X61.673313 Y169.334210 Z-0.125000 I1.389010 J0.268602
G02 X61.971242 Y168.795576 Z-0.125000 I-1.720491 J-1.303348
G02 X62.166579 Y168.231380 Z-0.125000 I-9.676758 J-3.666213
G01 X62.240735 Y168.007734 Z-0.125000
G01 X62.310725 Y167.787022 Z-0.125000
G01 X62.374311 Y167.588399 Z-0.125000
G02 X62.376965 Y166.814594 Z-0.125000 I-1.945194 J-0.393578
G02 X62.096173 Y166.072282 Z-0.125000 I-2.317564 J0.452397
G01 X61.993935 Y165.895153 Z-0.125000
G02 X61.831149 Y165.616979 Z-0.125000 I-31.677843 J18.350974
G02 X61.666648 Y165.339383 Z-0.125000 I-127.268430 J75.230787
G03 X61.507591 Y165.066263 Z-0.125000 I148.455725 J-86.639037
G03 X61.348900 Y164.793020 Z-0.125000 I488.101679 J-283.654772
G02 X61.242313 Y164.611565 Z-0.125000 I-36.205328 J21.145139
G02 X61.134708 Y164.430457 Z-0.125000 I-36.423825 J21.518648
G03 X60.877660 Y163.983406 Z-0.125000 I14.157931 J-8.438035
G03 X60.642544 Y163.529479 Z-0.125000 I7.909596 J-4.384707
G02 X59.947382 Y162.608386 Z-0.125000 I-2.766205 J1.364823
G02 X58.880364 Y161.937034 Z-0.125000 I-2.437389 J2.690271
G01 X58.562283 Y161.794598 Z-0.125000
G02 X57.638464 Y161.431157 Z-0.125000 I-4.950692 J11.228187
G02 X57.300581 Y161.356289 Z-0.125000 I-0.489381 J1.408716
G02 X57.017513 Y161.584906 Z-0.125000 I2.559662 J3.458850
G02 X56.767321 Y161.825578 Z-0.125000 I2.587762 J2.940509
G01 X56.767321 Y162.013294 Z-0.125000
G01 X56.447365 Y162.107152 Z-0.125000
G02 X56.275294 Y162.267915 Z-0.125000 I3.446646 J3.861560
G02 X56.087415 Y162.459119 Z-0.125000 I4.689202 J4.795563
G03 X55.748923 Y162.800802 Z-0.125000 I-10.740610 J-10.301801
G03 X55.387511 Y163.127857 Z-0.125000 I-4.437779 J-4.540751
G01 X55.167541 Y163.327305 Z-0.125000
G01 X55.167541 Y163.515020 Z-0.125000
G01 X54.847585 Y163.608878 Z-0.125000
G02 X54.682764 Y163.769252 Z-0.125000 I3.675986 J3.942820
G02 X54.500966 Y163.960845 Z-0.125000 I5.066188 J4.989208
G03 X53.415963 Y164.716075 Z-0.125000 I-2.475793 J-2.399856
G03 X52.027973 Y165.075408 Z-0.125000 I-1.794303 J-4.070477
G03 X51.784733 Y165.093536 Z-0.125000 I-6.041964 J-79.428131
G03 X51.541373 Y165.110605 Z-0.125000 I-3.128420 J-42.861367
G01 X51.521793 Y164.917756 Z-0.125000
G02 X51.492880 Y164.642193 Z-0.125000 I-53.089104 J5.431060
G02 X51.462634 Y164.366708 Z-0.125000 I-62.241383 J6.694059
G03 X51.441199 Y164.100330 Z-0.125000 I8.238890 J-0.797030
G03 X51.430138 Y163.833624 Z-0.125000 I5.866582 J-0.376876
G02 X51.158743 Y162.970239 Z-0.125000 I-1.716154 J0.065107
G02 X50.581505 Y162.201010 Z-0.125000 I-5.579662 J3.585839
G03 X50.406448 Y161.964174 Z-0.125000 I18.255365 J-13.676562
G03 X50.234886 Y161.725854 Z-0.125000 I19.383514 J-14.134735
G02 X49.895878 Y161.254529 Z-0.125000 I-98.433584 J70.442463
G02 X49.553314 Y160.784709 Z-0.125000 I-57.790932 J41.777784
G01 X49.402683 Y160.579463 Z-0.125000
G02 X49.247563 Y160.371087 Z-0.125000 I-33.131320 J24.501687
G02 X49.090903 Y160.163381 Z-0.125000 I-33.173861 J24.858177
G03 X48.772818 Y159.716827 Z-0.125000 I8.104225 J-6.109277
G03 X48.503041 Y159.251085 Z-0.125000 I3.340301 J-2.245845
G02 X48.261597 Y158.869903 Z-0.125000 I-2.179723 J1.113599
G02 X47.915205 Y158.540552 Z-0.125000 I-1.236263 J0.953393
G02 X46.332575 Y158.284937 Z-0.125000 I-1.902480 J6.751931
G02 X44.715645 Y158.258978 Z-0.125000 I-1.247443 J27.330076
G02 X44.236879 Y159.285316 Z-0.125000 I18.008198 J9.025311
G02 X43.809103 Y160.323852 Z-0.125000 I29.229229 J12.646955
G03 X43.622891 Y160.793237 Z-0.125000 I-234.855546 J-92.899279
G03 X43.435821 Y161.262431 Z-0.125000 I-327.329785 J-130.235830
G01 X43.299590 Y161.603766 Z-0.125000
G03 X42.667135 Y162.644040 Z-0.125000 I-4.051134 J-1.750573
G03 X41.609406 Y163.462225 Z-0.125000 I-2.293755 J-1.872513
G03 X41.403803 Y163.537377 Z-0.125000 I-4.511548 J-12.024012
G03 X41.196129 Y163.608878 Z-0.125000 I-3.565675 J-10.019098
G01 X40.889505 Y163.720335 Z-0.125000
G03 X40.195290 Y163.832939 Z-0.125000 I-1.223764 J-5.348368
G03 X39.489697 Y163.890452 Z-0.125000 I-2.227665 J-22.972765
G01 X39.409708 Y163.685138 Z-0.125000
G02 X39.064044 Y163.185561 Z-0.125000 I-1.976484 J0.998182
G02 X38.606485 Y162.741426 Z-0.125000 I-4.093882 J3.759857
G03 X38.147303 Y162.307585 Z-0.125000 I7.441456 J-8.336062
G03 X37.709942 Y161.860775 Z-0.125000 I20.489754 J-20.493861
G02 X36.976820 Y161.118558 Z-0.125000 I-31.849492 J30.726044
G02 X36.224730 Y160.387646 Z-0.125000 I-42.589279 J43.070917
G03 X35.713370 Y159.855808 Z-0.125000 I10.116927 J-10.239134
G03 X35.224451 Y159.311580 Z-0.125000 I32.841191 J-29.995346
G02 X34.933526 Y159.079643 Z-0.125000 I-1.330905 J1.370961
G02 X34.583706 Y158.915983 Z-0.125000 I-0.764326 J1.178039
G02 X34.305625 Y158.963124 Z-0.125000 I0.538826 J4.022226
G02 X33.989621 Y159.038072 Z-0.125000 I1.083130 J5.270530
G01 X33.646751 Y159.128447 Z-0.125000
G01 X33.290550 Y159.226888 Z-0.125000
G01 X32.931849 Y159.322029 Z-0.125000
G02 X32.076928 Y159.567733 Z-0.125000 I6.201143 J23.186864
G02 X31.810754 Y159.666846 Z-0.125000 I0.719396 J2.338951
G01 X31.812907 Y159.832196 Z-0.125000
G03 X31.821971 Y160.688724 Z-0.125000 I-228.811672 J2.849657
G03 X31.828329 Y161.545265 Z-0.125000 I-332.825799 J2.899061
G02 X31.831169 Y161.864375 Z-0.125000 I117.051494 J-0.881968
G02 X31.834891 Y162.183480 Z-0.125000 I113.834679 J-1.168094
G03 X31.839383 Y162.643749 Z-0.125000 I-77.379904 J0.985415
G03 X31.841999 Y163.104026 Z-0.125000 I-208.697359 J1.416261
G01 X31.847003 Y163.389436 Z-0.125000
G03 X31.678170 Y164.568137 Z-0.125000 I-4.191263 J0.001098
G03 X31.064189 Y165.673752 Z-0.125000 I-2.754649 J-0.806449
G03 X29.823455 Y166.385735 Z-0.125000 I-2.541872 J-2.992512
G03 X28.337898 Y166.659260 Z-0.125000 I-1.614105 J-4.595549
G03 X26.859145 Y166.307471 Z-0.125000 I0.101766 J-3.711650
G03 X25.624937 Y165.579894 Z-0.125000 I3.284507 J-6.982196
G02 X25.355172 Y165.393596 Z-0.125000 I-42.026923 J60.567810
G02 X25.084725 Y165.207900 Z-0.125000 I-199.368050 J290.068329
G03 X24.014742 Y164.461304 Z-0.125000 I48.102330 J-70.077827
G03 X22.958637 Y163.702736 Z-0.125000 I62.859210 J-88.629275
G02 X22.338077 Y163.974636 Z-0.125000 I0.713073 J2.471558
G02 X21.798797 Y164.342143 Z-0.125000 I3.184146 J5.251846
G03 X21.116027 Y164.835543 Z-0.125000 I-12.718847 J-16.881316
G03 X20.398989 Y165.298320 Z-0.125000 I-7.432673 J-10.729459
G02 X20.589535 Y165.927582 Z-0.125000 I2.375118 J-0.375726
G02 X20.885589 Y166.530205 Z-0.125000 I11.974056 J-5.508526
G03 X21.366577 Y167.481267 Z-0.125000 I-68.743932 J35.363615
G03 X21.832126 Y168.436694 Z-0.125000 I-60.042653 J29.847936
G01 X21.942553 Y168.667169 Z-0.125000
G03 X22.324827 Y169.946344 Z-0.125000 I-3.919619 J1.868063
G03 X22.218739 Y171.281762 Z-0.125000 I-3.105980 J0.425179
G03 X21.461619 Y172.287751 Z-0.125000 I-2.617140 J-1.181789
G03 X20.297337 Y173.010801 Z-0.125000 I-2.992699 J-3.520048
G03 X19.878481 Y173.126751 Z-0.125000 I-1.013404 J-2.846283
G03 X19.439121 Y173.182384 Z-0.125000 I-0.604683 J-3.012725
G01 X19.219855 Y173.194827 Z-0.125000
G03 X18.125772 Y173.113498 Z-0.125000 I-0.160228 J-5.244314
G03 X17.066114 Y172.877346 Z-0.125000 I2.396063 J-13.247077
G01 X16.711684 Y172.786971 Z-0.125000
G03 X15.964759 Y172.593141 Z-0.125000 I26.127739 J-102.219463
G03 X15.219702 Y172.394858 Z-0.125000 I38.628702 J-146.648074
G01 X14.826422 Y172.290734 Z-0.125000
G01 X14.498135 Y172.199809 Z-0.125000
G02 X14.084987 Y172.175951 Z-0.125000 I-0.309361 J1.767995
G02 X13.679913 Y172.243805 Z-0.125000 I0.110052 J1.900003
G02 X13.525889 Y172.427502 Z-0.125000 I1.553528 J1.459012
G02 X13.378705 Y172.647101 Z-0.125000 I2.076552 J1.550909
G01 X13.226434 Y172.896411 Z-0.125000
G01 X13.073330 Y173.158920 Z-0.125000
G01 X12.916477 Y173.417029 Z-0.125000
G02 X12.584152 Y173.997221 Z-0.125000 I13.092533 J7.884473
G02 X12.293437 Y174.590253 Z-0.125000 I6.827201 J3.714586
G01 X12.485494 Y174.738739 Z-0.125000
G03 X13.386427 Y175.471492 Z-0.125000 I-18.375378 J23.513081
G03 X14.255668 Y176.226900 Z-0.125000 I-28.236698 J33.369519
G02 X14.613423 Y176.523303 Z-0.125000 I6.824804 J-7.873346
G02 X14.986400 Y176.807645 Z-0.125000 I7.986413 J-10.089145
G03 X15.996197 Y177.832482 Z-0.125000 I-3.039521 J4.004822
G03 X16.482445 Y179.063535 Z-0.125000 I-2.087062 J1.535917
G03 X16.319863 Y180.294893 Z-0.125000 I-3.642169 J0.145520
G03 X15.706301 Y181.441879 Z-0.125000 I-3.309487 J-1.032757
G03 X13.850846 Y182.317318 Z-0.125000 I-2.493834 J-2.881577
G03 X11.733514 Y182.585772 Z-0.125000 I-4.238065 J-24.942051
G02 X11.346037 Y182.620563 Z-0.125000 I28.636241 J321.103704
G02 X10.958601 Y182.655646 Z-0.125000 I115.015153 J1272.356094
G03 X10.719495 Y182.676891 Z-0.125000 I-11.127170 J-123.877405
G03 X10.480321 Y182.697645 Z-0.125000 I-9.605091 J-109.299344
G02 X9.785640 Y182.765945 Z-0.125000 I2.503772 J29.033252
G02 X9.093877 Y182.849748 Z-0.125000 I3.615326 J32.740119
G02 X9.013397 Y183.368858 Z-0.125000 I188.480411 J29.486902
G02 X8.933899 Y183.888051 Z-0.125000 I523.171143 J80.372396
G01 X8.887656 Y184.183374 Z-0.125000
G02 X8.795637 Y184.923116 Z-0.125000 I13.852106 J2.098704
G02 X8.773921 Y185.665485 Z-0.125000 I5.446797 J0.530832
G02 X9.404719 Y185.932633 Z-0.125000 I5.612587 J-12.374289
G02 X10.054995 Y186.168505 Z-0.125000 I4.623637 J-11.732616
G01 X10.421768 Y186.291143 Z-0.125000
G02 X10.794993 Y186.414355 Z-0.125000 I108.463702 J-327.925770
G02 X11.168436 Y186.537153 Z-0.125000 I102.418381 J-310.834468
G03 X11.721599 Y186.721898 Z-0.125000 I-25.486897 J77.233407
G03 X12.273440 Y186.909102 Z-0.125000 I-82.152222 J243.076188
G01 X12.649014 Y187.030457 Z-0.125000
G03 X13.858014 Y187.660189 Z-0.125000 I-1.510291 J4.374979
G03 X14.709772 Y188.582779 Z-0.125000 I-1.881845 J2.591843
G03 X14.983391 Y189.775908 Z-0.125000 I-5.155235 J1.810186
G03 X14.786428 Y190.991921 Z-0.125000 I-2.263692 J0.257297
G03 X14.663014 Y191.192554 Z-0.125000 I-7.154404 J-4.262566
G03 X14.533129 Y191.390817 Z-0.125000 I-6.971484 J-4.425426
G01 X14.411063 Y191.583299 Z-0.125000
G03 X13.289359 Y192.525352 Z-0.125000 I-2.473730 J-1.806637
G03 X11.862664 Y193.174850 Z-0.125000 I-11.563043 J-23.507855
G02 X11.345964 Y193.426482 Z-0.125000 I3.411318 J7.661089
G02 X10.842804 Y193.694735 Z-0.125000 I57.063890 J107.640154
G03 X10.506673 Y193.870629 Z-0.125000 I-11.539942 J-21.643514
G03 X10.167063 Y194.042302 Z-0.125000 I-13.720096 J-26.719870
G02 X9.839735 Y194.213713 Z-0.125000 I5.045128 J10.032483
G02 X9.520485 Y194.394269 Z-0.125000 I5.531619 J10.153215
G02 X9.641328 Y195.291040 Z-0.125000 I5.661123 J-0.306327
G02 X9.880436 Y196.171703 Z-0.125000 I8.698367 J-1.888891
G01 X9.948005 Y196.383777 Z-0.125000
G02 X10.140282 Y196.828321 Z-0.125000 I2.831039 J-0.960643
G02 X10.480353 Y197.210006 Z-0.125000 I0.955042 J-0.508576
G02 X10.725555 Y197.276181 Z-0.125000 I1.280220 J-4.256337
G02 X11.013197 Y197.337595 Z-0.125000 I1.388137 J-5.797233
G01 X11.342840 Y197.401709 Z-0.125000
G01 X11.700186 Y197.468116 Z-0.125000
G03 X12.878163 Y197.700530 Z-0.125000 I-23.165746 J120.515409
G03 X14.048612 Y197.955737 Z-0.125000 I-7.925888 J39.162028
G01 X14.442751 Y198.047120 Z-0.125000
G03 X14.815216 Y198.135188 Z-0.125000 I-17.914738 J76.598681
G03 X15.186972 Y198.225120 Z-0.125000 I-16.236018 J67.928795
G02 X16.448030 Y198.411468 Z-0.125000 I1.786980 J-7.732790
G02 X17.732689 Y198.430159 Z-0.125000 I0.822705 J-12.387990
G03 X18.089080 Y199.767459 Z-0.125000 I-6.309128 J2.397525
G03 X17.950159 Y201.143606 Z-0.125000 I-2.673299 J0.425218
G03 X17.237598 Y202.123755 Z-0.125000 I-5.062834 J-2.931558
G03 X16.398551 Y203.044000 Z-0.125000 I-66.990204 J-60.236701
G02 X15.996931 Y203.487137 Z-0.125000 I30.650430 J28.182326
G02 X15.599649 Y203.932579 Z-0.125000 I279.749950 J249.904166
G01 X15.452092 Y204.097494 Z-0.125000
G02 X15.258992 Y204.314078 Z-0.125000 I73.587872 J65.803496
G02 X15.066389 Y204.530923 Z-0.125000 I262.956507 J233.752771
G01 X14.866417 Y204.732571 Z-0.125000
G02 X14.776428 Y204.915175 Z-0.125000 I0.574246 J0.396471
G02 X14.752266 Y205.087104 Z-0.125000 I0.483141 J0.155559
G02 X15.112838 Y205.585236 Z-0.125000 I1.842735 J-0.954295
G03 X15.558405 Y206.042182 Z-0.125000 I-92.118234 J90.270045
G03 X15.802326 Y206.311498 Z-0.125000 I-3.692289 J3.589246
G03 X15.997511 Y206.562800 Z-0.125000 I-3.018605 J2.545992
G02 X16.461483 Y207.045402 Z-0.125000 I2.142492 J-1.595452
G02 X16.824689 Y207.230941 Z-0.125000 I0.622996 J-0.771286
G01 X17.129439 Y207.266734 Z-0.125000
G01 X17.473897 Y207.308645 Z-0.125000
G01 X17.839341 Y207.346660 Z-0.125000
G01 X18.204161 Y207.385592 Z-0.125000
G02 X19.387507 Y207.495826 Z-0.125000 I7.631290 J-75.513554
G02 X20.572351 Y207.595466 Z-0.125000 I43.530527 J-510.541563
G03 X21.019657 Y207.641366 Z-0.125000 I-1.779074 J19.540079
G03 X21.465093 Y207.696794 Z-0.125000 I-2.525253 J22.111105
G02 X23.104508 Y207.549972 Z-0.125000 I0.473014 J-3.944612
G02 X24.590262 Y206.956402 Z-0.125000 I-2.863925 J-9.324905
G03 X24.775672 Y206.891333 Z-0.125000 I0.323690 J0.625636
G03 X24.985025 Y206.877370 Z-0.125000 I0.157666 J0.787537
G03 X25.337738 Y208.647147 Z-0.125000 I-2.494276 J1.417140
G03 X24.932949 Y210.372844 Z-0.125000 I-8.223151 J-1.018545
G01 X24.771721 Y210.819402 Z-0.125000
G02 X24.637964 Y211.203568 Z-0.125000 I117.936042 J41.277782
G02 X24.505352 Y211.587955 Z-0.125000 I158.850866 J55.018188
G03 X24.419499 Y211.835101 Z-0.125000 I-51.648322 J-17.802893
G03 X24.332355 Y212.081993 Z-0.125000 I-47.779525 J-16.725774
G01 X24.253043 Y212.308663 Z-0.125000
G01 X24.182089 Y212.508432 Z-0.125000
G02 X24.148427 Y212.698742 Z-0.125000 I1.085763 J0.290183
G02 X24.131809 Y213.071992 Z-0.125000 I4.183581 J0.373249
G01 X24.322538 Y213.163787 Z-0.125000
G03 X24.750491 Y213.370061 Z-0.125000 I-338.416935 J702.654166
G03 X25.178332 Y213.576478 Z-0.125000 I-1534.392083 J3180.883338
G01 X25.478499 Y213.720931 Z-0.125000
G01 X25.767001 Y213.860251 Z-0.125000
G01 X26.032720 Y213.988344 Z-0.125000
G02 X26.680784 Y214.229304 Z-0.125000 I1.437107 J-2.873139
G02 X27.383821 Y214.313805 Z-0.125000 I0.678414 J-2.677483
G01 X27.383821 Y214.313805 Z-0.125000
G00 Z5.000000

(End cutting path id: path6)


(Start cutting path id: path46)
(Change tool to Default tool)

G00 Z5.000000
G00 X22.318704 Y207.440591

G01 Z-0.125000 F100.0(Penetrate)
G01 X22.745312 Y207.440591 Z-0.125000 F400.000000
G02 X22.977807 Y207.357893 Z-0.125000 I-1.735971 J-5.248629
G02 X23.230245 Y207.255808 Z-0.125000 I-2.396913 J-6.290322
G01 X23.503124 Y207.140319 Z-0.125000
G01 X23.785169 Y207.018230 Z-0.125000
G01 X24.072213 Y206.896142 Z-0.125000
G02 X24.422273 Y206.746463 Z-0.125000 I-50.208989 J-117.909876
G02 X24.771700 Y206.595870 Z-0.125000 I-54.501670 J-126.943200
G02 X24.436164 Y206.215561 Z-0.125000 I-1.721577 J1.180728
G02 X23.956812 Y205.949543 Z-0.125000 I-0.836016 J0.941568
G02 X23.432844 Y205.868807 Z-0.125000 I-2.306524 J13.228475
G02 X22.905290 Y205.803944 Z-0.125000 I-3.265108 J24.378493
G01 X22.547006 Y205.754998 Z-0.125000
G02 X20.840473 Y205.681647 Z-0.125000 I-1.306521 J10.508398
G02 X19.205799 Y206.056187 Z-0.125000 I0.169972 J4.496373
G01 X18.990203 Y206.144751 Z-0.125000
G02 X18.680510 Y206.275169 Z-0.125000 I10.572362 J25.538390
G02 X18.372580 Y206.408154 Z-0.125000 I21.886983 J51.102830
G01 X18.027211 Y206.555907 Z-0.125000
G02 X17.665418 Y206.714998 Z-0.125000 I17.652570 J40.634985
G02 X17.306060 Y206.877443 Z-0.125000 I13.800018 J31.006817
G02 X17.864284 Y207.084034 Z-0.125000 I0.859532 J-1.465047
G02 X18.467150 Y207.165616 Z-0.125000 I1.231614 J-6.832911
G01 X18.717892 Y207.190063 Z-0.125000
G02 X18.980748 Y207.215164 Z-0.125000 I11.933414 J-123.579897
G02 X19.243684 Y207.239722 Z-0.125000 I12.298380 J-130.254444
G03 X19.642579 Y207.277472 Z-0.125000 I-9.155024 J98.866595
G03 X20.041309 Y207.316302 Z-0.125000 I-27.208238 J281.450845
G02 X20.297411 Y207.340740 Z-0.125000 I57.019461 J-596.204262
G02 X20.553530 Y207.365065 Z-0.125000 I53.451004 J-561.435797
G01 X20.791640 Y207.388165 Z-0.125000
G02 X21.553886 Y207.433996 Z-0.125000 I1.122563 J-12.308567
G02 X22.318704 Y207.440591 Z-0.125000 I0.542972 J-18.617211
G01 X22.318704 Y207.440591 Z-0.125000
G00 Z5.000000

(End cutting path id: path46)


(Start cutting path id: path149)
(Change tool to Default tool)

G00 Z5.000000
G00 X23.705180 Y205.751149

G01 Z-0.125000 F100.0(Penetrate)
G01 X23.811832 Y205.563433 Z-0.125000 F400.000000
G01 X24.131788 Y205.375717 Z-0.125000
G02 X23.283467 Y205.215830 Z-0.125000 I-5.289672 J25.735242
G02 X22.425356 Y205.094143 Z-0.125000 I-2.527091 J14.734111
G01 X22.425356 Y205.281859 Z-0.125000
G01 X21.358836 Y205.281859 Z-0.125000
G01 X21.252184 Y205.469575 Z-0.125000
G02 X21.715377 Y205.540292 Z-0.125000 I42.615004 J-277.573513
G02 X22.178723 Y205.610362 Z-0.125000 I60.540728 J-398.767181
G01 X22.442645 Y205.651058 Z-0.125000
G02 X23.069632 Y205.731203 Z-0.125000 I2.185511 J-14.604913
G02 X23.705180 Y205.751149 Z-0.125000 I0.451635 J-4.255494
G01 X23.705180 Y205.751149 Z-0.125000
G00 Z5.000000

(End cutting path id: path149)


(Start cutting path id: path66)
(Change tool to Default tool)

G00 Z5.000000
G00 X26.264828 Y201.715259

G01 Z-0.125000 F100.0(Penetrate)
G02 X26.211980 Y201.455134 Z-0.125000 I-0.666606 J0.000000 F400.000000
G02 X26.053190 Y201.215906 Z-0.125000 I-0.718173 J0.304378
G01 X25.758231 Y200.952663 Z-0.125000
G03 X23.096114 Y197.649093 Z-0.125000 I9.933310 J-10.728956
G03 X21.358836 Y194.018911 Z-0.125000 I20.103465 J-11.851602
G01 X21.248435 Y193.731105 Z-0.125000
G03 X21.142984 Y193.452790 Z-0.125000 I46.266338 J-17.688913
G03 X21.038880 Y193.174190 Z-0.125000 I88.829398 J-33.351592
G01 X20.612272 Y193.174190 Z-0.125000
G02 X21.751307 Y196.712490 Z-0.125000 I6.958372 J-0.287523
G02 X24.131788 Y199.838101 Z-0.125000 I23.704021 J-15.583805
G03 X24.281187 Y200.013879 Z-0.125000 I-392.968219 J334.147449
G03 X24.430497 Y200.189701 Z-0.125000 I-454.978065 J386.521407
G02 X24.587666 Y200.371786 Z-0.125000 I201.407502 J-173.689861
G02 X24.745037 Y200.553767 Z-0.125000 I198.179180 J-171.218491
G01 X24.893740 Y200.729270 Z-0.125000
G02 X25.263053 Y201.050311 Z-0.125000 I1.376110 J-1.210082
G02 X25.731568 Y201.245969 Z-0.125000 I0.753945 J-1.146588
G03 X26.016832 Y201.485264 Z-0.125000 I-4.907416 J6.139807
G03 X26.264828 Y201.715259 Z-0.125000 I-4.284854 J4.868938
G01 X26.264828 Y201.715259 Z-0.125000
G00 Z5.000000

(End cutting path id: path66)


(Start cutting path id: path106)
(Change tool to Default tool)

G00 Z5.000000
G00 X24.238440 Y199.556527

G01 Z-0.125000 F100.0(Penetrate)
G02 X24.178635 Y199.235549 Z-0.125000 I-0.891258 J-0.000000 F400.000000
G02 X24.019303 Y198.947184 Z-0.125000 I-1.130409 J0.436389
G01 X23.875443 Y198.749730 Z-0.125000
G01 X23.718511 Y198.535823 Z-0.125000
G03 X22.372929 Y196.325648 Z-0.125000 I14.645260 J-10.430913
G03 X21.358836 Y194.018911 Z-0.125000 I18.481449 J-9.501135
G02 X21.258900 Y193.757858 Z-0.125000 I-891.915915 J341.283147
G02 X21.158863 Y193.496827 Z-0.125000 I-602.415015 J230.721258
G01 X21.038880 Y193.174190 Z-0.125000
G01 X20.825576 Y193.361906 Z-0.125000
G02 X21.935019 Y196.670374 Z-0.125000 I7.132518 J-0.551528
G02 X24.238440 Y199.556527 Z-0.125000 I15.024579 J-9.628772
G01 X24.238440 Y199.556527 Z-0.125000
G00 Z5.000000

(End cutting path id: path106)


(Start cutting path id: path108)
(Change tool to Default tool)

G00 Z5.000000
G00 X18.159276 Y198.336375

G01 Z-0.125000 F100.0(Penetrate)
G01 X19.972360 Y198.336375 Z-0.125000 F400.000000
G01 X19.972360 Y198.148659 Z-0.125000
G01 X20.718924 Y198.242517 Z-0.125000
G02 X20.385086 Y198.105894 Z-0.125000 I-0.644332 J1.098245
